MODULE Etna

    PERS tooldata toolEtna:=[TRUE,[[553,37.7,123.5],[0.707107,0,0.707107,0]],[20,[10,-40,123.5],[0,0,1,0],1,0,1]];
    PERS wobjdata wobjEtna:=[FALSE,TRUE,"",[[1329,136,736.3],[1,0,0,0]],[[0,0,0],[1,0,0,0]]];

    
    CONST robtarget T00:=[[-25.354220,-22.610029,0.331125],[0.000000,0.000000,1.000000,0.000000],[0,0,-1,0],[9E+09,9E+09,9E+09,9E+09,9E+09,9E+09]];
    CONST robtarget T10:=[[-25.354220,20.921970,0.331125],[0.000000,0.000000,1.000000,0.000000],[0,0,-1,0],[9E+09,9E+09,9E+09,9E+09,9E+09,9E+09]];
    CONST robtarget T20:=[[-23.854220,-22.610029,0.331125],[0.000000,0.000000,1.000000,0.000000],[0,0,-1,0],[9E+09,9E+09,9E+09,9E+09,9E+09,9E+09]];
    CONST robtarget T30:=[[-23.854220,20.921970,0.331125],[0.000000,0.000000,1.000000,0.000000],[0,0,-1,0],[9E+09,9E+09,9E+09,9E+09,9E+09,9E+09]];
    CONST robtarget T40:=[[-22.354220,-22.610029,0.331125],[0.000000,0.000000,1.000000,0.000000],[0,0,-1,0],[9E+09,9E+09,9E+09,9E+09,9E+09,9E+09]];
    CONST robtarget T50:=[[-22.354220,20.921970,0.331125],[0.000000,0.000000,1.000000,0.000000],[0,0,-1,0],[9E+09,9E+09,9E+09,9E+09,9E+09,9E+09]];
    CONST robtarget T60:=[[-20.854220,-22.610029,0.331125],[0.000000,0.000000,1.000000,0.000000],[0,0,-1,0],[9E+09,9E+09,9E+09,9E+09,9E+09,9E+09]];
    CONST robtarget T70:=[[-20.854220,20.921970,0.331125],[0.000000,0.000000,1.000000,0.000000],[0,0,-1,0],[9E+09,9E+09,9E+09,9E+09,9E+09,9E+09]];
    CONST robtarget T80:=[[-19.354220,-22.610029,0.331125],[0.000000,0.000000,1.000000,0.000000],[0,0,-1,0],[9E+09,9E+09,9E+09,9E+09,9E+09,9E+09]];
    CONST robtarget T90:=[[-19.354220,20.921970,0.331125],[0.000000,0.000000,1.000000,0.000000],[0,0,-1,0],[9E+09,9E+09,9E+09,9E+09,9E+09,9E+09]];
    CONST robtarget T100:=[[-17.854220,-22.610029,0.331125],[0.000000,0.000000,1.000000,0.000000],[0,0,-1,0],[9E+09,9E+09,9E+09,9E+09,9E+09,9E+09]];
    CONST robtarget T110:=[[-17.854220,20.921970,0.331125],[0.000000,0.000000,1.000000,0.000000],[0,0,-1,0],[9E+09,9E+09,9E+09,9E+09,9E+09,9E+09]];
    CONST robtarget T120:=[[-16.354220,-22.610029,0.331125],[0.000000,0.000000,1.000000,0.000000],[0,0,-1,0],[9E+09,9E+09,9E+09,9E+09,9E+09,9E+09]];
    CONST robtarget T130:=[[-16.354220,20.921970,0.331125],[0.000000,0.000000,1.000000,0.000000],[0,0,-1,0],[9E+09,9E+09,9E+09,9E+09,9E+09,9E+09]];
    CONST robtarget T140:=[[-14.854220,-22.610029,0.331125],[0.000000,0.000000,1.000000,0.000000],[0,0,-1,0],[9E+09,9E+09,9E+09,9E+09,9E+09,9E+09]];
    CONST robtarget T150:=[[-14.854220,20.921970,0.331125],[0.000000,0.000000,1.000000,0.000000],[0,0,-1,0],[9E+09,9E+09,9E+09,9E+09,9E+09,9E+09]];
    CONST robtarget T160:=[[-13.354220,-22.610029,0.331125],[0.000000,0.000000,1.000000,0.000000],[0,0,-1,0],[9E+09,9E+09,9E+09,9E+09,9E+09,9E+09]];
    CONST robtarget T170:=[[-13.354220,20.921970,0.331125],[0.000000,0.000000,1.000000,0.000000],[0,0,-1,0],[9E+09,9E+09,9E+09,9E+09,9E+09,9E+09]];
    CONST robtarget T180:=[[-11.854220,-22.610029,0.331125],[0.000000,0.000000,1.000000,0.000000],[0,0,-1,0],[9E+09,9E+09,9E+09,9E+09,9E+09,9E+09]];
    CONST robtarget T190:=[[-11.854220,20.921970,0.331125],[0.000000,0.000000,1.000000,0.000000],[0,0,-1,0],[9E+09,9E+09,9E+09,9E+09,9E+09,9E+09]];
    CONST robtarget T200:=[[-10.354220,-22.610029,0.331125],[0.000000,0.000000,1.000000,0.000000],[0,0,-1,0],[9E+09,9E+09,9E+09,9E+09,9E+09,9E+09]];
    CONST robtarget T210:=[[-10.354220,20.921970,0.331125],[0.000000,0.000000,1.000000,0.000000],[0,0,-1,0],[9E+09,9E+09,9E+09,9E+09,9E+09,9E+09]];
    CONST robtarget T220:=[[-8.854220,-22.610029,0.331125],[0.000000,0.000000,1.000000,0.000000],[0,0,-1,0],[9E+09,9E+09,9E+09,9E+09,9E+09,9E+09]];
    CONST robtarget T230:=[[-8.854220,20.921970,0.331125],[0.000000,0.000000,1.000000,0.000000],[0,0,-1,0],[9E+09,9E+09,9E+09,9E+09,9E+09,9E+09]];
    CONST robtarget T240:=[[-7.354220,-22.610029,0.331125],[0.000000,0.000000,1.000000,0.000000],[0,0,-1,0],[9E+09,9E+09,9E+09,9E+09,9E+09,9E+09]];
    CONST robtarget T250:=[[-7.354220,20.921970,0.331125],[0.000000,0.000000,1.000000,0.000000],[0,0,-1,0],[9E+09,9E+09,9E+09,9E+09,9E+09,9E+09]];
    CONST robtarget T260:=[[-5.854220,-22.610029,0.331125],[0.000000,0.000000,1.000000,0.000000],[0,0,-1,0],[9E+09,9E+09,9E+09,9E+09,9E+09,9E+09]];
    CONST robtarget T270:=[[-5.854220,20.921970,0.331125],[0.000000,0.000000,1.000000,0.000000],[0,0,-1,0],[9E+09,9E+09,9E+09,9E+09,9E+09,9E+09]];
    CONST robtarget T280:=[[-4.354220,-22.610029,0.331125],[0.000000,0.000000,1.000000,0.000000],[0,0,-1,0],[9E+09,9E+09,9E+09,9E+09,9E+09,9E+09]];
    CONST robtarget T290:=[[-4.354220,20.921970,0.331125],[0.000000,0.000000,1.000000,0.000000],[0,0,-1,0],[9E+09,9E+09,9E+09,9E+09,9E+09,9E+09]];
    CONST robtarget T300:=[[-2.854220,-22.610029,0.331125],[0.000000,0.000000,1.000000,0.000000],[0,0,-1,0],[9E+09,9E+09,9E+09,9E+09,9E+09,9E+09]];
    CONST robtarget T310:=[[-2.854220,20.921970,0.331125],[0.000000,0.000000,1.000000,0.000000],[0,0,-1,0],[9E+09,9E+09,9E+09,9E+09,9E+09,9E+09]];
    CONST robtarget T320:=[[-1.354220,-22.610029,0.331125],[0.000000,0.000000,1.000000,0.000000],[0,0,-1,0],[9E+09,9E+09,9E+09,9E+09,9E+09,9E+09]];
    CONST robtarget T330:=[[-1.354220,20.921970,0.331125],[0.000000,0.000000,1.000000,0.000000],[0,0,-1,0],[9E+09,9E+09,9E+09,9E+09,9E+09,9E+09]];
    CONST robtarget T340:=[[0.145780,-22.610029,0.331125],[0.000000,0.000000,1.000000,0.000000],[0,0,-1,0],[9E+09,9E+09,9E+09,9E+09,9E+09,9E+09]];
    CONST robtarget T350:=[[0.145780,20.921970,0.331125],[0.000000,0.000000,1.000000,0.000000],[0,0,-1,0],[9E+09,9E+09,9E+09,9E+09,9E+09,9E+09]];
    CONST robtarget T360:=[[1.645780,-22.610029,0.331125],[0.000000,0.000000,1.000000,0.000000],[0,0,-1,0],[9E+09,9E+09,9E+09,9E+09,9E+09,9E+09]];
    CONST robtarget T370:=[[1.645780,20.921970,0.331125],[0.000000,0.000000,1.000000,0.000000],[0,0,-1,0],[9E+09,9E+09,9E+09,9E+09,9E+09,9E+09]];
    CONST robtarget T380:=[[3.145780,-22.610029,0.331125],[0.000000,0.000000,1.000000,0.000000],[0,0,-1,0],[9E+09,9E+09,9E+09,9E+09,9E+09,9E+09]];
    CONST robtarget T390:=[[3.145780,20.921970,0.331125],[0.000000,0.000000,1.000000,0.000000],[0,0,-1,0],[9E+09,9E+09,9E+09,9E+09,9E+09,9E+09]];
    CONST robtarget T400:=[[4.645780,-22.610029,0.331125],[0.000000,0.000000,1.000000,0.000000],[0,0,-1,0],[9E+09,9E+09,9E+09,9E+09,9E+09,9E+09]];
    CONST robtarget T410:=[[4.645780,20.921970,0.331125],[0.000000,0.000000,1.000000,0.000000],[0,0,-1,0],[9E+09,9E+09,9E+09,9E+09,9E+09,9E+09]];
    CONST robtarget T420:=[[6.145780,-22.610029,0.331125],[0.000000,0.000000,1.000000,0.000000],[0,0,-1,0],[9E+09,9E+09,9E+09,9E+09,9E+09,9E+09]];
    CONST robtarget T430:=[[6.145780,20.921970,0.331125],[0.000000,0.000000,1.000000,0.000000],[0,0,-1,0],[9E+09,9E+09,9E+09,9E+09,9E+09,9E+09]];
    CONST robtarget T440:=[[7.645780,-22.610029,0.331125],[0.000000,0.000000,1.000000,0.000000],[0,0,-1,0],[9E+09,9E+09,9E+09,9E+09,9E+09,9E+09]];
    CONST robtarget T450:=[[7.645780,20.921970,0.331125],[0.000000,0.000000,1.000000,0.000000],[0,0,-1,0],[9E+09,9E+09,9E+09,9E+09,9E+09,9E+09]];
    CONST robtarget T460:=[[9.145780,-22.610029,0.331125],[0.000000,0.000000,1.000000,0.000000],[0,0,-1,0],[9E+09,9E+09,9E+09,9E+09,9E+09,9E+09]];
    CONST robtarget T470:=[[9.145780,20.921970,0.331125],[0.000000,0.000000,1.000000,0.000000],[0,0,-1,0],[9E+09,9E+09,9E+09,9E+09,9E+09,9E+09]];
    CONST robtarget T480:=[[10.645780,-22.610029,0.331125],[0.000000,0.000000,1.000000,0.000000],[0,0,-1,0],[9E+09,9E+09,9E+09,9E+09,9E+09,9E+09]];
    CONST robtarget T490:=[[10.645780,20.921970,0.331125],[0.000000,0.000000,1.000000,0.000000],[0,0,-1,0],[9E+09,9E+09,9E+09,9E+09,9E+09,9E+09]];
    CONST robtarget T500:=[[12.145780,-22.610029,0.331125],[0.000000,0.000000,1.000000,0.000000],[0,0,-1,0],[9E+09,9E+09,9E+09,9E+09,9E+09,9E+09]];
    CONST robtarget T510:=[[12.145780,20.921970,0.331125],[0.000000,0.000000,1.000000,0.000000],[0,0,-1,0],[9E+09,9E+09,9E+09,9E+09,9E+09,9E+09]];
    CONST robtarget T520:=[[13.645780,-22.610029,0.331125],[0.000000,0.000000,1.000000,0.000000],[0,0,-1,0],[9E+09,9E+09,9E+09,9E+09,9E+09,9E+09]];
    CONST robtarget T530:=[[13.645780,20.921970,0.331125],[0.000000,0.000000,1.000000,0.000000],[0,0,-1,0],[9E+09,9E+09,9E+09,9E+09,9E+09,9E+09]];
    CONST robtarget T540:=[[15.145780,-22.610029,0.331125],[0.000000,0.000000,1.000000,0.000000],[0,0,-1,0],[9E+09,9E+09,9E+09,9E+09,9E+09,9E+09]];
    CONST robtarget T550:=[[15.145780,20.921970,0.331125],[0.000000,0.000000,1.000000,0.000000],[0,0,-1,0],[9E+09,9E+09,9E+09,9E+09,9E+09,9E+09]];
    CONST robtarget T560:=[[16.645780,-22.610029,0.331125],[0.000000,0.000000,1.000000,0.000000],[0,0,-1,0],[9E+09,9E+09,9E+09,9E+09,9E+09,9E+09]];
    CONST robtarget T570:=[[16.645780,20.921970,0.331125],[0.000000,0.000000,1.000000,0.000000],[0,0,-1,0],[9E+09,9E+09,9E+09,9E+09,9E+09,9E+09]];
    CONST robtarget T580:=[[18.145780,-22.610029,0.331125],[0.000000,0.000000,1.000000,0.000000],[0,0,-1,0],[9E+09,9E+09,9E+09,9E+09,9E+09,9E+09]];
    CONST robtarget T590:=[[18.145780,20.921970,0.331125],[0.000000,0.000000,1.000000,0.000000],[0,0,-1,0],[9E+09,9E+09,9E+09,9E+09,9E+09,9E+09]];
    CONST robtarget T600:=[[19.645780,-22.610029,0.331125],[0.000000,0.000000,1.000000,0.000000],[0,0,-1,0],[9E+09,9E+09,9E+09,9E+09,9E+09,9E+09]];
    CONST robtarget T610:=[[19.645780,20.921970,0.331125],[0.000000,0.000000,1.000000,0.000000],[0,0,-1,0],[9E+09,9E+09,9E+09,9E+09,9E+09,9E+09]];
    CONST robtarget T620:=[[21.145780,-22.610029,0.331125],[0.000000,0.000000,1.000000,0.000000],[0,0,-1,0],[9E+09,9E+09,9E+09,9E+09,9E+09,9E+09]];
    CONST robtarget T630:=[[21.145780,20.921970,0.331125],[0.000000,0.000000,1.000000,0.000000],[0,0,-1,0],[9E+09,9E+09,9E+09,9E+09,9E+09,9E+09]];
    CONST robtarget T640:=[[22.645780,-22.610029,0.331125],[0.000000,0.000000,1.000000,0.000000],[0,0,-1,0],[9E+09,9E+09,9E+09,9E+09,9E+09,9E+09]];
    CONST robtarget T650:=[[22.645780,20.921970,0.331125],[0.000000,0.000000,1.000000,0.000000],[0,0,-1,0],[9E+09,9E+09,9E+09,9E+09,9E+09,9E+09]];
    CONST robtarget T660:=[[24.145780,-22.610029,0.331125],[0.000000,0.000000,1.000000,0.000000],[0,0,-1,0],[9E+09,9E+09,9E+09,9E+09,9E+09,9E+09]];
    CONST robtarget T670:=[[24.145780,20.921970,0.331125],[0.000000,0.000000,1.000000,0.000000],[0,0,-1,0],[9E+09,9E+09,9E+09,9E+09,9E+09,9E+09]];
    CONST robtarget T680:=[[-25.354220,-22.610029,0.831125],[0.000000,0.000000,1.000000,0.000000],[0,0,-1,0],[9E+09,9E+09,9E+09,9E+09,9E+09,9E+09]];
    CONST robtarget T690:=[[-25.354220,20.921970,0.831125],[0.000000,0.000000,1.000000,0.000000],[0,0,-1,0],[9E+09,9E+09,9E+09,9E+09,9E+09,9E+09]];
    CONST robtarget T700:=[[-23.854220,-22.610029,0.831125],[0.000000,0.000000,1.000000,0.000000],[0,0,-1,0],[9E+09,9E+09,9E+09,9E+09,9E+09,9E+09]];
    CONST robtarget T710:=[[-23.854220,20.921970,0.831125],[0.000000,0.000000,1.000000,0.000000],[0,0,-1,0],[9E+09,9E+09,9E+09,9E+09,9E+09,9E+09]];
    CONST robtarget T720:=[[-22.354220,-22.610029,0.831125],[0.000000,0.000000,1.000000,0.000000],[0,0,-1,0],[9E+09,9E+09,9E+09,9E+09,9E+09,9E+09]];
    CONST robtarget T730:=[[-22.354220,20.921970,0.831125],[0.000000,0.000000,1.000000,0.000000],[0,0,-1,0],[9E+09,9E+09,9E+09,9E+09,9E+09,9E+09]];
    CONST robtarget T740:=[[-20.854220,-22.610029,0.831125],[0.000000,0.000000,1.000000,0.000000],[0,0,-1,0],[9E+09,9E+09,9E+09,9E+09,9E+09,9E+09]];
    CONST robtarget T750:=[[-20.854220,20.921970,0.831125],[0.000000,0.000000,1.000000,0.000000],[0,0,-1,0],[9E+09,9E+09,9E+09,9E+09,9E+09,9E+09]];
    CONST robtarget T760:=[[-19.354220,-22.610029,0.831125],[0.000000,0.000000,1.000000,0.000000],[0,0,-1,0],[9E+09,9E+09,9E+09,9E+09,9E+09,9E+09]];
    CONST robtarget T770:=[[-19.354220,20.921970,0.831125],[0.000000,0.000000,1.000000,0.000000],[0,0,-1,0],[9E+09,9E+09,9E+09,9E+09,9E+09,9E+09]];
    CONST robtarget T780:=[[-17.854220,-22.610029,0.831125],[0.000000,0.000000,1.000000,0.000000],[0,0,-1,0],[9E+09,9E+09,9E+09,9E+09,9E+09,9E+09]];
    CONST robtarget T790:=[[-17.854220,20.921970,0.831125],[0.000000,0.000000,1.000000,0.000000],[0,0,-1,0],[9E+09,9E+09,9E+09,9E+09,9E+09,9E+09]];
    CONST robtarget T800:=[[-16.354220,-22.610029,0.831125],[0.000000,0.000000,1.000000,0.000000],[0,0,-1,0],[9E+09,9E+09,9E+09,9E+09,9E+09,9E+09]];
    CONST robtarget T810:=[[-16.354220,20.921970,0.831125],[0.000000,0.000000,1.000000,0.000000],[0,0,-1,0],[9E+09,9E+09,9E+09,9E+09,9E+09,9E+09]];
    CONST robtarget T820:=[[-14.854220,-22.610029,0.831125],[0.000000,0.000000,1.000000,0.000000],[0,0,-1,0],[9E+09,9E+09,9E+09,9E+09,9E+09,9E+09]];
    CONST robtarget T830:=[[-14.854220,20.921970,0.831125],[0.000000,0.000000,1.000000,0.000000],[0,0,-1,0],[9E+09,9E+09,9E+09,9E+09,9E+09,9E+09]];
    CONST robtarget T840:=[[-13.354220,-22.610029,0.831125],[0.000000,0.000000,1.000000,0.000000],[0,0,-1,0],[9E+09,9E+09,9E+09,9E+09,9E+09,9E+09]];
    CONST robtarget T850:=[[-13.354220,20.921970,0.831125],[0.000000,0.000000,1.000000,0.000000],[0,0,-1,0],[9E+09,9E+09,9E+09,9E+09,9E+09,9E+09]];
    CONST robtarget T860:=[[-11.854220,-22.610029,0.831125],[0.000000,0.000000,1.000000,0.000000],[0,0,-1,0],[9E+09,9E+09,9E+09,9E+09,9E+09,9E+09]];
    CONST robtarget T870:=[[-11.854220,20.921970,0.831125],[0.000000,0.000000,1.000000,0.000000],[0,0,-1,0],[9E+09,9E+09,9E+09,9E+09,9E+09,9E+09]];
    CONST robtarget T880:=[[-10.354220,-22.610029,0.831125],[0.000000,0.000000,1.000000,0.000000],[0,0,-1,0],[9E+09,9E+09,9E+09,9E+09,9E+09,9E+09]];
    CONST robtarget T890:=[[-10.354220,20.921970,0.831125],[0.000000,0.000000,1.000000,0.000000],[0,0,-1,0],[9E+09,9E+09,9E+09,9E+09,9E+09,9E+09]];
    CONST robtarget T900:=[[-8.854220,-22.610029,0.831125],[0.000000,0.000000,1.000000,0.000000],[0,0,-1,0],[9E+09,9E+09,9E+09,9E+09,9E+09,9E+09]];
    CONST robtarget T910:=[[-8.854220,20.921970,0.831125],[0.000000,0.000000,1.000000,0.000000],[0,0,-1,0],[9E+09,9E+09,9E+09,9E+09,9E+09,9E+09]];
    CONST robtarget T920:=[[-7.354220,-22.610029,0.831125],[0.000000,0.000000,1.000000,0.000000],[0,0,-1,0],[9E+09,9E+09,9E+09,9E+09,9E+09,9E+09]];
    CONST robtarget T930:=[[-7.354220,20.921970,0.831125],[0.000000,0.000000,1.000000,0.000000],[0,0,-1,0],[9E+09,9E+09,9E+09,9E+09,9E+09,9E+09]];
    CONST robtarget T940:=[[-5.854220,-22.610029,0.831125],[0.000000,0.000000,1.000000,0.000000],[0,0,-1,0],[9E+09,9E+09,9E+09,9E+09,9E+09,9E+09]];
    CONST robtarget T950:=[[-5.854220,20.921970,0.831125],[0.000000,0.000000,1.000000,0.000000],[0,0,-1,0],[9E+09,9E+09,9E+09,9E+09,9E+09,9E+09]];
    CONST robtarget T960:=[[-4.354220,-22.610029,0.831125],[0.000000,0.000000,1.000000,0.000000],[0,0,-1,0],[9E+09,9E+09,9E+09,9E+09,9E+09,9E+09]];
    CONST robtarget T970:=[[-4.354220,20.921970,0.831125],[0.000000,0.000000,1.000000,0.000000],[0,0,-1,0],[9E+09,9E+09,9E+09,9E+09,9E+09,9E+09]];
    CONST robtarget T980:=[[-2.854220,-22.610029,0.831125],[0.000000,0.000000,1.000000,0.000000],[0,0,-1,0],[9E+09,9E+09,9E+09,9E+09,9E+09,9E+09]];
    CONST robtarget T990:=[[-2.854220,20.921970,0.831125],[0.000000,0.000000,1.000000,0.000000],[0,0,-1,0],[9E+09,9E+09,9E+09,9E+09,9E+09,9E+09]];
    CONST robtarget T1000:=[[-1.354220,-22.610029,0.831125],[0.000000,0.000000,1.000000,0.000000],[0,0,-1,0],[9E+09,9E+09,9E+09,9E+09,9E+09,9E+09]];
    CONST robtarget T1010:=[[-1.354220,20.921970,0.831125],[0.000000,0.000000,1.000000,0.000000],[0,0,-1,0],[9E+09,9E+09,9E+09,9E+09,9E+09,9E+09]];
    CONST robtarget T1020:=[[0.145780,-22.610029,0.831125],[0.000000,0.000000,1.000000,0.000000],[0,0,-1,0],[9E+09,9E+09,9E+09,9E+09,9E+09,9E+09]];
    CONST robtarget T1030:=[[0.145780,20.921970,0.831125],[0.000000,0.000000,1.000000,0.000000],[0,0,-1,0],[9E+09,9E+09,9E+09,9E+09,9E+09,9E+09]];
    CONST robtarget T1040:=[[1.645780,-22.610029,0.831125],[0.000000,0.000000,1.000000,0.000000],[0,0,-1,0],[9E+09,9E+09,9E+09,9E+09,9E+09,9E+09]];
    CONST robtarget T1050:=[[1.645780,20.921970,0.831125],[0.000000,0.000000,1.000000,0.000000],[0,0,-1,0],[9E+09,9E+09,9E+09,9E+09,9E+09,9E+09]];
    CONST robtarget T1060:=[[3.145780,-22.610029,0.831125],[0.000000,0.000000,1.000000,0.000000],[0,0,-1,0],[9E+09,9E+09,9E+09,9E+09,9E+09,9E+09]];
    CONST robtarget T1070:=[[3.145780,20.921970,0.831125],[0.000000,0.000000,1.000000,0.000000],[0,0,-1,0],[9E+09,9E+09,9E+09,9E+09,9E+09,9E+09]];
    CONST robtarget T1080:=[[4.645780,-22.610029,0.831125],[0.000000,0.000000,1.000000,0.000000],[0,0,-1,0],[9E+09,9E+09,9E+09,9E+09,9E+09,9E+09]];
    CONST robtarget T1090:=[[4.645780,20.921970,0.831125],[0.000000,0.000000,1.000000,0.000000],[0,0,-1,0],[9E+09,9E+09,9E+09,9E+09,9E+09,9E+09]];
    CONST robtarget T1100:=[[6.145780,-22.610029,0.831125],[0.000000,0.000000,1.000000,0.000000],[0,0,-1,0],[9E+09,9E+09,9E+09,9E+09,9E+09,9E+09]];
    CONST robtarget T1110:=[[6.145780,20.921970,0.831125],[0.000000,0.000000,1.000000,0.000000],[0,0,-1,0],[9E+09,9E+09,9E+09,9E+09,9E+09,9E+09]];
    CONST robtarget T1120:=[[7.645780,-22.610029,0.831125],[0.000000,0.000000,1.000000,0.000000],[0,0,-1,0],[9E+09,9E+09,9E+09,9E+09,9E+09,9E+09]];
    CONST robtarget T1130:=[[7.645780,20.921970,0.831125],[0.000000,0.000000,1.000000,0.000000],[0,0,-1,0],[9E+09,9E+09,9E+09,9E+09,9E+09,9E+09]];
    CONST robtarget T1140:=[[9.145780,-22.610029,0.831125],[0.000000,0.000000,1.000000,0.000000],[0,0,-1,0],[9E+09,9E+09,9E+09,9E+09,9E+09,9E+09]];
    CONST robtarget T1150:=[[9.145780,20.921970,0.831125],[0.000000,0.000000,1.000000,0.000000],[0,0,-1,0],[9E+09,9E+09,9E+09,9E+09,9E+09,9E+09]];
    CONST robtarget T1160:=[[10.645780,-22.610029,0.831125],[0.000000,0.000000,1.000000,0.000000],[0,0,-1,0],[9E+09,9E+09,9E+09,9E+09,9E+09,9E+09]];
    CONST robtarget T1170:=[[10.645780,20.921970,0.831125],[0.000000,0.000000,1.000000,0.000000],[0,0,-1,0],[9E+09,9E+09,9E+09,9E+09,9E+09,9E+09]];
    CONST robtarget T1180:=[[12.145780,-22.610029,0.831125],[0.000000,0.000000,1.000000,0.000000],[0,0,-1,0],[9E+09,9E+09,9E+09,9E+09,9E+09,9E+09]];
    CONST robtarget T1190:=[[12.145780,20.921970,0.831125],[0.000000,0.000000,1.000000,0.000000],[0,0,-1,0],[9E+09,9E+09,9E+09,9E+09,9E+09,9E+09]];
    CONST robtarget T1200:=[[13.645780,-22.610029,0.831125],[0.000000,0.000000,1.000000,0.000000],[0,0,-1,0],[9E+09,9E+09,9E+09,9E+09,9E+09,9E+09]];
    CONST robtarget T1210:=[[13.645780,20.921970,0.831125],[0.000000,0.000000,1.000000,0.000000],[0,0,-1,0],[9E+09,9E+09,9E+09,9E+09,9E+09,9E+09]];
    CONST robtarget T1220:=[[15.145780,-22.610029,0.831125],[0.000000,0.000000,1.000000,0.000000],[0,0,-1,0],[9E+09,9E+09,9E+09,9E+09,9E+09,9E+09]];
    CONST robtarget T1230:=[[15.145780,20.921970,0.831125],[0.000000,0.000000,1.000000,0.000000],[0,0,-1,0],[9E+09,9E+09,9E+09,9E+09,9E+09,9E+09]];
    CONST robtarget T1240:=[[16.645780,-22.610029,0.831125],[0.000000,0.000000,1.000000,0.000000],[0,0,-1,0],[9E+09,9E+09,9E+09,9E+09,9E+09,9E+09]];
    CONST robtarget T1250:=[[16.645780,20.921970,0.831125],[0.000000,0.000000,1.000000,0.000000],[0,0,-1,0],[9E+09,9E+09,9E+09,9E+09,9E+09,9E+09]];
    CONST robtarget T1260:=[[18.145780,-22.610029,0.831125],[0.000000,0.000000,1.000000,0.000000],[0,0,-1,0],[9E+09,9E+09,9E+09,9E+09,9E+09,9E+09]];
    CONST robtarget T1270:=[[18.145780,20.921970,0.831125],[0.000000,0.000000,1.000000,0.000000],[0,0,-1,0],[9E+09,9E+09,9E+09,9E+09,9E+09,9E+09]];
    CONST robtarget T1280:=[[19.645780,-22.610029,0.831125],[0.000000,0.000000,1.000000,0.000000],[0,0,-1,0],[9E+09,9E+09,9E+09,9E+09,9E+09,9E+09]];
    CONST robtarget T1290:=[[19.645780,20.921970,0.831125],[0.000000,0.000000,1.000000,0.000000],[0,0,-1,0],[9E+09,9E+09,9E+09,9E+09,9E+09,9E+09]];
    CONST robtarget T1300:=[[21.145780,-22.610029,0.831125],[0.000000,0.000000,1.000000,0.000000],[0,0,-1,0],[9E+09,9E+09,9E+09,9E+09,9E+09,9E+09]];
    CONST robtarget T1310:=[[21.145780,20.921970,0.831125],[0.000000,0.000000,1.000000,0.000000],[0,0,-1,0],[9E+09,9E+09,9E+09,9E+09,9E+09,9E+09]];
    CONST robtarget T1320:=[[22.645780,-22.610029,0.831125],[0.000000,0.000000,1.000000,0.000000],[0,0,-1,0],[9E+09,9E+09,9E+09,9E+09,9E+09,9E+09]];
    CONST robtarget T1330:=[[22.645780,20.921970,0.831125],[0.000000,0.000000,1.000000,0.000000],[0,0,-1,0],[9E+09,9E+09,9E+09,9E+09,9E+09,9E+09]];
    CONST robtarget T1340:=[[24.145780,-22.610029,0.831125],[0.000000,0.000000,1.000000,0.000000],[0,0,-1,0],[9E+09,9E+09,9E+09,9E+09,9E+09,9E+09]];
    CONST robtarget T1350:=[[24.145780,20.921970,0.831125],[0.000000,0.000000,1.000000,0.000000],[0,0,-1,0],[9E+09,9E+09,9E+09,9E+09,9E+09,9E+09]];
    CONST robtarget T1360:=[[-25.354220,-22.610029,1.331125],[0.000000,0.000000,1.000000,0.000000],[0,0,-1,0],[9E+09,9E+09,9E+09,9E+09,9E+09,9E+09]];
    CONST robtarget T1370:=[[-25.354220,20.921970,1.331125],[0.000000,0.000000,1.000000,0.000000],[0,0,-1,0],[9E+09,9E+09,9E+09,9E+09,9E+09,9E+09]];
    CONST robtarget T1380:=[[-23.854220,-22.610029,1.331125],[0.000000,0.000000,1.000000,0.000000],[0,0,-1,0],[9E+09,9E+09,9E+09,9E+09,9E+09,9E+09]];
    CONST robtarget T1390:=[[-23.854220,20.921970,1.331125],[0.000000,0.000000,1.000000,0.000000],[0,0,-1,0],[9E+09,9E+09,9E+09,9E+09,9E+09,9E+09]];
    CONST robtarget T1400:=[[-22.354220,-22.610029,1.331125],[0.000000,0.000000,1.000000,0.000000],[0,0,-1,0],[9E+09,9E+09,9E+09,9E+09,9E+09,9E+09]];
    CONST robtarget T1410:=[[-22.354220,20.921970,1.331125],[0.000000,0.000000,1.000000,0.000000],[0,0,-1,0],[9E+09,9E+09,9E+09,9E+09,9E+09,9E+09]];
    CONST robtarget T1420:=[[-20.854220,-22.610029,1.331125],[0.000000,0.000000,1.000000,0.000000],[0,0,-1,0],[9E+09,9E+09,9E+09,9E+09,9E+09,9E+09]];
    CONST robtarget T1430:=[[-20.854220,20.921970,1.331125],[0.000000,0.000000,1.000000,0.000000],[0,0,-1,0],[9E+09,9E+09,9E+09,9E+09,9E+09,9E+09]];
    CONST robtarget T1440:=[[-19.354220,-22.610029,1.331125],[0.000000,0.000000,1.000000,0.000000],[0,0,-1,0],[9E+09,9E+09,9E+09,9E+09,9E+09,9E+09]];
    CONST robtarget T1450:=[[-19.354220,20.921970,1.331125],[0.000000,0.000000,1.000000,0.000000],[0,0,-1,0],[9E+09,9E+09,9E+09,9E+09,9E+09,9E+09]];
    CONST robtarget T1460:=[[-17.854220,-22.610029,1.331125],[0.000000,0.000000,1.000000,0.000000],[0,0,-1,0],[9E+09,9E+09,9E+09,9E+09,9E+09,9E+09]];
    CONST robtarget T1470:=[[-17.854220,20.921970,1.331125],[0.000000,0.000000,1.000000,0.000000],[0,0,-1,0],[9E+09,9E+09,9E+09,9E+09,9E+09,9E+09]];
    CONST robtarget T1480:=[[-16.354220,-22.610029,1.331125],[0.000000,0.000000,1.000000,0.000000],[0,0,-1,0],[9E+09,9E+09,9E+09,9E+09,9E+09,9E+09]];
    CONST robtarget T1490:=[[-16.354220,20.921970,1.331125],[0.000000,0.000000,1.000000,0.000000],[0,0,-1,0],[9E+09,9E+09,9E+09,9E+09,9E+09,9E+09]];
    CONST robtarget T1500:=[[-14.854220,-22.610029,1.331125],[0.000000,0.000000,1.000000,0.000000],[0,0,-1,0],[9E+09,9E+09,9E+09,9E+09,9E+09,9E+09]];
    CONST robtarget T1510:=[[-14.854220,20.921970,1.331125],[0.000000,0.000000,1.000000,0.000000],[0,0,-1,0],[9E+09,9E+09,9E+09,9E+09,9E+09,9E+09]];
    CONST robtarget T1520:=[[-13.354220,-22.610029,1.331125],[0.000000,0.000000,1.000000,0.000000],[0,0,-1,0],[9E+09,9E+09,9E+09,9E+09,9E+09,9E+09]];
    CONST robtarget T1530:=[[-13.354220,20.921970,1.331125],[0.000000,0.000000,1.000000,0.000000],[0,0,-1,0],[9E+09,9E+09,9E+09,9E+09,9E+09,9E+09]];
    CONST robtarget T1540:=[[-11.854220,-22.610029,1.331125],[0.000000,0.000000,1.000000,0.000000],[0,0,-1,0],[9E+09,9E+09,9E+09,9E+09,9E+09,9E+09]];
    CONST robtarget T1550:=[[-11.854220,20.921970,1.331125],[0.000000,0.000000,1.000000,0.000000],[0,0,-1,0],[9E+09,9E+09,9E+09,9E+09,9E+09,9E+09]];
    CONST robtarget T1560:=[[-10.354220,-22.610029,1.331125],[0.000000,0.000000,1.000000,0.000000],[0,0,-1,0],[9E+09,9E+09,9E+09,9E+09,9E+09,9E+09]];
    CONST robtarget T1570:=[[-10.354220,20.921970,1.331125],[0.000000,0.000000,1.000000,0.000000],[0,0,-1,0],[9E+09,9E+09,9E+09,9E+09,9E+09,9E+09]];
    CONST robtarget T1580:=[[-8.854220,-22.610029,1.331125],[0.000000,0.000000,1.000000,0.000000],[0,0,-1,0],[9E+09,9E+09,9E+09,9E+09,9E+09,9E+09]];
    CONST robtarget T1590:=[[-8.854220,20.921970,1.331125],[0.000000,0.000000,1.000000,0.000000],[0,0,-1,0],[9E+09,9E+09,9E+09,9E+09,9E+09,9E+09]];
    CONST robtarget T1600:=[[-7.354220,-22.610029,1.331125],[0.000000,0.000000,1.000000,0.000000],[0,0,-1,0],[9E+09,9E+09,9E+09,9E+09,9E+09,9E+09]];
    CONST robtarget T1610:=[[-7.354220,20.921970,1.331125],[0.000000,0.000000,1.000000,0.000000],[0,0,-1,0],[9E+09,9E+09,9E+09,9E+09,9E+09,9E+09]];
    CONST robtarget T1620:=[[-5.854220,-22.610029,1.331125],[0.000000,0.000000,1.000000,0.000000],[0,0,-1,0],[9E+09,9E+09,9E+09,9E+09,9E+09,9E+09]];
    CONST robtarget T1630:=[[-5.854220,20.921970,1.331125],[0.000000,0.000000,1.000000,0.000000],[0,0,-1,0],[9E+09,9E+09,9E+09,9E+09,9E+09,9E+09]];
    CONST robtarget T1640:=[[-4.354220,-22.610029,1.331125],[0.000000,0.000000,1.000000,0.000000],[0,0,-1,0],[9E+09,9E+09,9E+09,9E+09,9E+09,9E+09]];
    CONST robtarget T1650:=[[-4.354220,20.921970,1.331125],[0.000000,0.000000,1.000000,0.000000],[0,0,-1,0],[9E+09,9E+09,9E+09,9E+09,9E+09,9E+09]];
    CONST robtarget T1660:=[[-2.854220,-22.610029,1.331125],[0.000000,0.000000,1.000000,0.000000],[0,0,-1,0],[9E+09,9E+09,9E+09,9E+09,9E+09,9E+09]];
    CONST robtarget T1670:=[[-2.854220,20.921970,1.331125],[0.000000,0.000000,1.000000,0.000000],[0,0,-1,0],[9E+09,9E+09,9E+09,9E+09,9E+09,9E+09]];
    CONST robtarget T1680:=[[-1.354220,-22.610029,1.331125],[0.000000,0.000000,1.000000,0.000000],[0,0,-1,0],[9E+09,9E+09,9E+09,9E+09,9E+09,9E+09]];
    CONST robtarget T1690:=[[-1.354220,20.921970,1.331125],[0.000000,0.000000,1.000000,0.000000],[0,0,-1,0],[9E+09,9E+09,9E+09,9E+09,9E+09,9E+09]];
    CONST robtarget T1700:=[[0.145780,-22.610029,1.331125],[0.000000,0.000000,1.000000,0.000000],[0,0,-1,0],[9E+09,9E+09,9E+09,9E+09,9E+09,9E+09]];
    CONST robtarget T1710:=[[0.145780,20.921970,1.331125],[0.000000,0.000000,1.000000,0.000000],[0,0,-1,0],[9E+09,9E+09,9E+09,9E+09,9E+09,9E+09]];
    CONST robtarget T1720:=[[1.645780,-22.610029,1.331125],[0.000000,0.000000,1.000000,0.000000],[0,0,-1,0],[9E+09,9E+09,9E+09,9E+09,9E+09,9E+09]];
    CONST robtarget T1730:=[[1.645780,20.921970,1.331125],[0.000000,0.000000,1.000000,0.000000],[0,0,-1,0],[9E+09,9E+09,9E+09,9E+09,9E+09,9E+09]];
    CONST robtarget T1740:=[[3.145780,-22.610029,1.331125],[0.000000,0.000000,1.000000,0.000000],[0,0,-1,0],[9E+09,9E+09,9E+09,9E+09,9E+09,9E+09]];
    CONST robtarget T1750:=[[3.145780,20.921970,1.331125],[0.000000,0.000000,1.000000,0.000000],[0,0,-1,0],[9E+09,9E+09,9E+09,9E+09,9E+09,9E+09]];
    CONST robtarget T1760:=[[4.645780,-22.610029,1.331125],[0.000000,0.000000,1.000000,0.000000],[0,0,-1,0],[9E+09,9E+09,9E+09,9E+09,9E+09,9E+09]];
    CONST robtarget T1770:=[[4.645780,20.921970,1.331125],[0.000000,0.000000,1.000000,0.000000],[0,0,-1,0],[9E+09,9E+09,9E+09,9E+09,9E+09,9E+09]];
    CONST robtarget T1780:=[[6.145780,-22.610029,1.331125],[0.000000,0.000000,1.000000,0.000000],[0,0,-1,0],[9E+09,9E+09,9E+09,9E+09,9E+09,9E+09]];
    CONST robtarget T1790:=[[6.145780,20.921970,1.331125],[0.000000,0.000000,1.000000,0.000000],[0,0,-1,0],[9E+09,9E+09,9E+09,9E+09,9E+09,9E+09]];
    CONST robtarget T1800:=[[7.645780,-22.610029,1.331125],[0.000000,0.000000,1.000000,0.000000],[0,0,-1,0],[9E+09,9E+09,9E+09,9E+09,9E+09,9E+09]];
    CONST robtarget T1810:=[[7.645780,20.921970,1.331125],[0.000000,0.000000,1.000000,0.000000],[0,0,-1,0],[9E+09,9E+09,9E+09,9E+09,9E+09,9E+09]];
    CONST robtarget T1820:=[[9.145780,-22.610029,1.331125],[0.000000,0.000000,1.000000,0.000000],[0,0,-1,0],[9E+09,9E+09,9E+09,9E+09,9E+09,9E+09]];
    CONST robtarget T1830:=[[9.145780,20.921970,1.331125],[0.000000,0.000000,1.000000,0.000000],[0,0,-1,0],[9E+09,9E+09,9E+09,9E+09,9E+09,9E+09]];
    CONST robtarget T1840:=[[10.645780,-22.610029,1.331125],[0.000000,0.000000,1.000000,0.000000],[0,0,-1,0],[9E+09,9E+09,9E+09,9E+09,9E+09,9E+09]];
    CONST robtarget T1850:=[[10.645780,20.921970,1.331125],[0.000000,0.000000,1.000000,0.000000],[0,0,-1,0],[9E+09,9E+09,9E+09,9E+09,9E+09,9E+09]];
    CONST robtarget T1860:=[[12.145780,-22.610029,1.331125],[0.000000,0.000000,1.000000,0.000000],[0,0,-1,0],[9E+09,9E+09,9E+09,9E+09,9E+09,9E+09]];
    CONST robtarget T1870:=[[12.145780,20.921970,1.331125],[0.000000,0.000000,1.000000,0.000000],[0,0,-1,0],[9E+09,9E+09,9E+09,9E+09,9E+09,9E+09]];
    CONST robtarget T1880:=[[13.645780,-22.610029,1.331125],[0.000000,0.000000,1.000000,0.000000],[0,0,-1,0],[9E+09,9E+09,9E+09,9E+09,9E+09,9E+09]];
    CONST robtarget T1890:=[[13.645780,20.921970,1.331125],[0.000000,0.000000,1.000000,0.000000],[0,0,-1,0],[9E+09,9E+09,9E+09,9E+09,9E+09,9E+09]];
    CONST robtarget T1900:=[[15.145780,-22.610029,1.331125],[0.000000,0.000000,1.000000,0.000000],[0,0,-1,0],[9E+09,9E+09,9E+09,9E+09,9E+09,9E+09]];
    CONST robtarget T1910:=[[15.145780,20.921970,1.331125],[0.000000,0.000000,1.000000,0.000000],[0,0,-1,0],[9E+09,9E+09,9E+09,9E+09,9E+09,9E+09]];
    CONST robtarget T1920:=[[16.645780,-22.610029,1.331125],[0.000000,0.000000,1.000000,0.000000],[0,0,-1,0],[9E+09,9E+09,9E+09,9E+09,9E+09,9E+09]];
    CONST robtarget T1930:=[[16.645780,20.921970,1.331125],[0.000000,0.000000,1.000000,0.000000],[0,0,-1,0],[9E+09,9E+09,9E+09,9E+09,9E+09,9E+09]];
    CONST robtarget T1940:=[[18.145780,-22.610029,1.331125],[0.000000,0.000000,1.000000,0.000000],[0,0,-1,0],[9E+09,9E+09,9E+09,9E+09,9E+09,9E+09]];
    CONST robtarget T1950:=[[18.145780,20.921970,1.331125],[0.000000,0.000000,1.000000,0.000000],[0,0,-1,0],[9E+09,9E+09,9E+09,9E+09,9E+09,9E+09]];
    CONST robtarget T1960:=[[19.645780,-22.610029,1.331125],[0.000000,0.000000,1.000000,0.000000],[0,0,-1,0],[9E+09,9E+09,9E+09,9E+09,9E+09,9E+09]];
    CONST robtarget T1970:=[[19.645780,20.921970,1.331125],[0.000000,0.000000,1.000000,0.000000],[0,0,-1,0],[9E+09,9E+09,9E+09,9E+09,9E+09,9E+09]];
    CONST robtarget T1980:=[[21.145780,-22.610029,1.331125],[0.000000,0.000000,1.000000,0.000000],[0,0,-1,0],[9E+09,9E+09,9E+09,9E+09,9E+09,9E+09]];
    CONST robtarget T1990:=[[21.145780,20.921970,1.331125],[0.000000,0.000000,1.000000,0.000000],[0,0,-1,0],[9E+09,9E+09,9E+09,9E+09,9E+09,9E+09]];
    CONST robtarget T2000:=[[22.645780,-22.610029,1.331125],[0.000000,0.000000,1.000000,0.000000],[0,0,-1,0],[9E+09,9E+09,9E+09,9E+09,9E+09,9E+09]];
    CONST robtarget T2010:=[[22.645780,20.921970,1.331125],[0.000000,0.000000,1.000000,0.000000],[0,0,-1,0],[9E+09,9E+09,9E+09,9E+09,9E+09,9E+09]];
    CONST robtarget T2020:=[[24.145780,-22.610029,1.331125],[0.000000,0.000000,1.000000,0.000000],[0,0,-1,0],[9E+09,9E+09,9E+09,9E+09,9E+09,9E+09]];
    CONST robtarget T2030:=[[24.145780,20.921970,1.331125],[0.000000,0.000000,1.000000,0.000000],[0,0,-1,0],[9E+09,9E+09,9E+09,9E+09,9E+09,9E+09]];
    CONST robtarget T2040:=[[-25.354220,-22.610029,1.831125],[0.000000,0.000000,1.000000,0.000000],[0,0,-1,0],[9E+09,9E+09,9E+09,9E+09,9E+09,9E+09]];
    CONST robtarget T2050:=[[-25.354220,20.921970,1.831125],[0.000000,0.000000,1.000000,0.000000],[0,0,-1,0],[9E+09,9E+09,9E+09,9E+09,9E+09,9E+09]];
    CONST robtarget T2060:=[[-23.854220,-22.610029,1.831125],[0.000000,0.000000,1.000000,0.000000],[0,0,-1,0],[9E+09,9E+09,9E+09,9E+09,9E+09,9E+09]];
    CONST robtarget T2070:=[[-23.854220,20.921970,1.831125],[0.000000,0.000000,1.000000,0.000000],[0,0,-1,0],[9E+09,9E+09,9E+09,9E+09,9E+09,9E+09]];
    CONST robtarget T2080:=[[-22.354220,-22.610029,1.831125],[0.000000,0.000000,1.000000,0.000000],[0,0,-1,0],[9E+09,9E+09,9E+09,9E+09,9E+09,9E+09]];
    CONST robtarget T2090:=[[-22.354220,20.921970,1.831125],[0.000000,0.000000,1.000000,0.000000],[0,0,-1,0],[9E+09,9E+09,9E+09,9E+09,9E+09,9E+09]];
    CONST robtarget T2100:=[[-20.854220,-22.610029,1.831125],[0.000000,0.000000,1.000000,0.000000],[0,0,-1,0],[9E+09,9E+09,9E+09,9E+09,9E+09,9E+09]];
    CONST robtarget T2110:=[[-20.854220,20.921970,1.831125],[0.000000,0.000000,1.000000,0.000000],[0,0,-1,0],[9E+09,9E+09,9E+09,9E+09,9E+09,9E+09]];
    CONST robtarget T2120:=[[-19.354220,-22.610029,1.831125],[0.000000,0.000000,1.000000,0.000000],[0,0,-1,0],[9E+09,9E+09,9E+09,9E+09,9E+09,9E+09]];
    CONST robtarget T2130:=[[-19.354220,20.921970,1.831125],[0.000000,0.000000,1.000000,0.000000],[0,0,-1,0],[9E+09,9E+09,9E+09,9E+09,9E+09,9E+09]];
    CONST robtarget T2140:=[[-17.854220,-22.610029,1.831125],[0.000000,0.000000,1.000000,0.000000],[0,0,-1,0],[9E+09,9E+09,9E+09,9E+09,9E+09,9E+09]];
    CONST robtarget T2150:=[[-17.854220,20.921970,1.831125],[0.000000,0.000000,1.000000,0.000000],[0,0,-1,0],[9E+09,9E+09,9E+09,9E+09,9E+09,9E+09]];
    CONST robtarget T2160:=[[-16.354220,-22.610029,1.831125],[0.000000,0.000000,1.000000,0.000000],[0,0,-1,0],[9E+09,9E+09,9E+09,9E+09,9E+09,9E+09]];
    CONST robtarget T2170:=[[-16.354220,20.921970,1.831125],[0.000000,0.000000,1.000000,0.000000],[0,0,-1,0],[9E+09,9E+09,9E+09,9E+09,9E+09,9E+09]];
    CONST robtarget T2180:=[[-14.854220,-22.610029,1.831125],[0.000000,0.000000,1.000000,0.000000],[0,0,-1,0],[9E+09,9E+09,9E+09,9E+09,9E+09,9E+09]];
    CONST robtarget T2190:=[[-14.854220,20.921970,1.831125],[0.000000,0.000000,1.000000,0.000000],[0,0,-1,0],[9E+09,9E+09,9E+09,9E+09,9E+09,9E+09]];
    CONST robtarget T2200:=[[-13.354220,-22.610029,1.831125],[0.000000,0.000000,1.000000,0.000000],[0,0,-1,0],[9E+09,9E+09,9E+09,9E+09,9E+09,9E+09]];
    CONST robtarget T2210:=[[-13.354220,20.921970,1.831125],[0.000000,0.000000,1.000000,0.000000],[0,0,-1,0],[9E+09,9E+09,9E+09,9E+09,9E+09,9E+09]];
    CONST robtarget T2220:=[[-11.854220,-22.610029,1.831125],[0.000000,0.000000,1.000000,0.000000],[0,0,-1,0],[9E+09,9E+09,9E+09,9E+09,9E+09,9E+09]];
    CONST robtarget T2230:=[[-11.854220,20.921970,1.831125],[0.000000,0.000000,1.000000,0.000000],[0,0,-1,0],[9E+09,9E+09,9E+09,9E+09,9E+09,9E+09]];
    CONST robtarget T2240:=[[-10.354220,-22.610029,1.831125],[0.000000,0.000000,1.000000,0.000000],[0,0,-1,0],[9E+09,9E+09,9E+09,9E+09,9E+09,9E+09]];
    CONST robtarget T2250:=[[-10.354220,20.921970,1.831125],[0.000000,0.000000,1.000000,0.000000],[0,0,-1,0],[9E+09,9E+09,9E+09,9E+09,9E+09,9E+09]];
    CONST robtarget T2260:=[[-8.854220,-22.610029,1.831125],[0.000000,0.000000,1.000000,0.000000],[0,0,-1,0],[9E+09,9E+09,9E+09,9E+09,9E+09,9E+09]];
    CONST robtarget T2270:=[[-8.854220,20.921970,1.831125],[0.000000,0.000000,1.000000,0.000000],[0,0,-1,0],[9E+09,9E+09,9E+09,9E+09,9E+09,9E+09]];
    CONST robtarget T2280:=[[-7.354220,-22.610029,1.831125],[0.000000,0.000000,1.000000,0.000000],[0,0,-1,0],[9E+09,9E+09,9E+09,9E+09,9E+09,9E+09]];
    CONST robtarget T2290:=[[-7.354220,20.921970,1.831125],[0.000000,0.000000,1.000000,0.000000],[0,0,-1,0],[9E+09,9E+09,9E+09,9E+09,9E+09,9E+09]];
    CONST robtarget T2300:=[[-5.854220,-22.610029,1.831125],[0.000000,0.000000,1.000000,0.000000],[0,0,-1,0],[9E+09,9E+09,9E+09,9E+09,9E+09,9E+09]];
    CONST robtarget T2310:=[[-5.854220,20.921970,1.831125],[0.000000,0.000000,1.000000,0.000000],[0,0,-1,0],[9E+09,9E+09,9E+09,9E+09,9E+09,9E+09]];
    CONST robtarget T2320:=[[-4.354220,-22.610029,1.831125],[0.000000,0.000000,1.000000,0.000000],[0,0,-1,0],[9E+09,9E+09,9E+09,9E+09,9E+09,9E+09]];
    CONST robtarget T2330:=[[-4.354220,20.921970,1.831125],[0.000000,0.000000,1.000000,0.000000],[0,0,-1,0],[9E+09,9E+09,9E+09,9E+09,9E+09,9E+09]];
    CONST robtarget T2340:=[[-2.854220,-22.610029,1.831125],[0.000000,0.000000,1.000000,0.000000],[0,0,-1,0],[9E+09,9E+09,9E+09,9E+09,9E+09,9E+09]];
    CONST robtarget T2350:=[[-2.854220,20.921970,1.831125],[0.000000,0.000000,1.000000,0.000000],[0,0,-1,0],[9E+09,9E+09,9E+09,9E+09,9E+09,9E+09]];
    CONST robtarget T2360:=[[-1.354220,-22.610029,1.831125],[0.000000,0.000000,1.000000,0.000000],[0,0,-1,0],[9E+09,9E+09,9E+09,9E+09,9E+09,9E+09]];
    CONST robtarget T2370:=[[-1.354220,20.921970,1.831125],[0.000000,0.000000,1.000000,0.000000],[0,0,-1,0],[9E+09,9E+09,9E+09,9E+09,9E+09,9E+09]];
    CONST robtarget T2380:=[[0.145780,-22.610029,1.831125],[0.000000,0.000000,1.000000,0.000000],[0,0,-1,0],[9E+09,9E+09,9E+09,9E+09,9E+09,9E+09]];
    CONST robtarget T2390:=[[0.145780,20.921970,1.831125],[0.000000,0.000000,1.000000,0.000000],[0,0,-1,0],[9E+09,9E+09,9E+09,9E+09,9E+09,9E+09]];
    CONST robtarget T2400:=[[1.645780,-22.610029,1.831125],[0.000000,0.000000,1.000000,0.000000],[0,0,-1,0],[9E+09,9E+09,9E+09,9E+09,9E+09,9E+09]];
    CONST robtarget T2410:=[[1.645780,20.921970,1.831125],[0.000000,0.000000,1.000000,0.000000],[0,0,-1,0],[9E+09,9E+09,9E+09,9E+09,9E+09,9E+09]];
    CONST robtarget T2420:=[[3.145780,-22.610029,1.831125],[0.000000,0.000000,1.000000,0.000000],[0,0,-1,0],[9E+09,9E+09,9E+09,9E+09,9E+09,9E+09]];
    CONST robtarget T2430:=[[3.145780,20.921970,1.831125],[0.000000,0.000000,1.000000,0.000000],[0,0,-1,0],[9E+09,9E+09,9E+09,9E+09,9E+09,9E+09]];
    CONST robtarget T2440:=[[4.645780,-22.610029,1.831125],[0.000000,0.000000,1.000000,0.000000],[0,0,-1,0],[9E+09,9E+09,9E+09,9E+09,9E+09,9E+09]];
    CONST robtarget T2450:=[[4.645780,20.921970,1.831125],[0.000000,0.000000,1.000000,0.000000],[0,0,-1,0],[9E+09,9E+09,9E+09,9E+09,9E+09,9E+09]];
    CONST robtarget T2460:=[[6.145780,-22.610029,1.831125],[0.000000,0.000000,1.000000,0.000000],[0,0,-1,0],[9E+09,9E+09,9E+09,9E+09,9E+09,9E+09]];
    CONST robtarget T2470:=[[6.145780,20.921970,1.831125],[0.000000,0.000000,1.000000,0.000000],[0,0,-1,0],[9E+09,9E+09,9E+09,9E+09,9E+09,9E+09]];
    CONST robtarget T2480:=[[7.645780,-22.610029,1.831125],[0.000000,0.000000,1.000000,0.000000],[0,0,-1,0],[9E+09,9E+09,9E+09,9E+09,9E+09,9E+09]];
    CONST robtarget T2490:=[[7.645780,20.921970,1.831125],[0.000000,0.000000,1.000000,0.000000],[0,0,-1,0],[9E+09,9E+09,9E+09,9E+09,9E+09,9E+09]];
    CONST robtarget T2500:=[[9.145780,-22.610029,1.831125],[0.000000,0.000000,1.000000,0.000000],[0,0,-1,0],[9E+09,9E+09,9E+09,9E+09,9E+09,9E+09]];
    CONST robtarget T2510:=[[9.145780,20.921970,1.831125],[0.000000,0.000000,1.000000,0.000000],[0,0,-1,0],[9E+09,9E+09,9E+09,9E+09,9E+09,9E+09]];
    CONST robtarget T2520:=[[10.645780,-22.610029,1.831125],[0.000000,0.000000,1.000000,0.000000],[0,0,-1,0],[9E+09,9E+09,9E+09,9E+09,9E+09,9E+09]];
    CONST robtarget T2530:=[[10.645780,20.921970,1.831125],[0.000000,0.000000,1.000000,0.000000],[0,0,-1,0],[9E+09,9E+09,9E+09,9E+09,9E+09,9E+09]];
    CONST robtarget T2540:=[[12.145780,-22.610029,1.831125],[0.000000,0.000000,1.000000,0.000000],[0,0,-1,0],[9E+09,9E+09,9E+09,9E+09,9E+09,9E+09]];
    CONST robtarget T2550:=[[12.145780,20.921970,1.831125],[0.000000,0.000000,1.000000,0.000000],[0,0,-1,0],[9E+09,9E+09,9E+09,9E+09,9E+09,9E+09]];
    CONST robtarget T2560:=[[13.645780,-22.610029,1.831125],[0.000000,0.000000,1.000000,0.000000],[0,0,-1,0],[9E+09,9E+09,9E+09,9E+09,9E+09,9E+09]];
    CONST robtarget T2570:=[[13.645780,20.921970,1.831125],[0.000000,0.000000,1.000000,0.000000],[0,0,-1,0],[9E+09,9E+09,9E+09,9E+09,9E+09,9E+09]];
    CONST robtarget T2580:=[[15.145780,-22.610029,1.831125],[0.000000,0.000000,1.000000,0.000000],[0,0,-1,0],[9E+09,9E+09,9E+09,9E+09,9E+09,9E+09]];
    CONST robtarget T2590:=[[15.145780,20.921970,1.831125],[0.000000,0.000000,1.000000,0.000000],[0,0,-1,0],[9E+09,9E+09,9E+09,9E+09,9E+09,9E+09]];
    CONST robtarget T2600:=[[16.645780,-22.610029,1.831125],[0.000000,0.000000,1.000000,0.000000],[0,0,-1,0],[9E+09,9E+09,9E+09,9E+09,9E+09,9E+09]];
    CONST robtarget T2610:=[[16.645780,20.921970,1.831125],[0.000000,0.000000,1.000000,0.000000],[0,0,-1,0],[9E+09,9E+09,9E+09,9E+09,9E+09,9E+09]];
    CONST robtarget T2620:=[[18.145780,-22.610029,1.831125],[0.000000,0.000000,1.000000,0.000000],[0,0,-1,0],[9E+09,9E+09,9E+09,9E+09,9E+09,9E+09]];
    CONST robtarget T2630:=[[18.145780,20.921970,1.831125],[0.000000,0.000000,1.000000,0.000000],[0,0,-1,0],[9E+09,9E+09,9E+09,9E+09,9E+09,9E+09]];
    CONST robtarget T2640:=[[19.645780,-22.610029,1.831125],[0.000000,0.000000,1.000000,0.000000],[0,0,-1,0],[9E+09,9E+09,9E+09,9E+09,9E+09,9E+09]];
    CONST robtarget T2650:=[[19.645780,20.921970,1.831125],[0.000000,0.000000,1.000000,0.000000],[0,0,-1,0],[9E+09,9E+09,9E+09,9E+09,9E+09,9E+09]];
    CONST robtarget T2660:=[[21.145780,-22.610029,1.831125],[0.000000,0.000000,1.000000,0.000000],[0,0,-1,0],[9E+09,9E+09,9E+09,9E+09,9E+09,9E+09]];
    CONST robtarget T2670:=[[21.145780,20.921970,1.831125],[0.000000,0.000000,1.000000,0.000000],[0,0,-1,0],[9E+09,9E+09,9E+09,9E+09,9E+09,9E+09]];
    CONST robtarget T2680:=[[22.645780,-22.610029,1.831125],[0.000000,0.000000,1.000000,0.000000],[0,0,-1,0],[9E+09,9E+09,9E+09,9E+09,9E+09,9E+09]];
    CONST robtarget T2690:=[[22.645780,20.921970,1.831125],[0.000000,0.000000,1.000000,0.000000],[0,0,-1,0],[9E+09,9E+09,9E+09,9E+09,9E+09,9E+09]];
    CONST robtarget T2700:=[[24.145780,-22.610029,1.831125],[0.000000,0.000000,1.000000,0.000000],[0,0,-1,0],[9E+09,9E+09,9E+09,9E+09,9E+09,9E+09]];
    CONST robtarget T2710:=[[24.145780,20.921970,1.831125],[0.000000,0.000000,1.000000,0.000000],[0,0,-1,0],[9E+09,9E+09,9E+09,9E+09,9E+09,9E+09]];
    CONST robtarget T2720:=[[-25.354220,-22.610029,2.331125],[0.000000,0.000000,1.000000,0.000000],[0,0,-1,0],[9E+09,9E+09,9E+09,9E+09,9E+09,9E+09]];
    CONST robtarget T2730:=[[-25.354220,20.921970,2.331125],[0.000000,0.000000,1.000000,0.000000],[0,0,-1,0],[9E+09,9E+09,9E+09,9E+09,9E+09,9E+09]];
    CONST robtarget T2740:=[[-23.854220,-22.610029,2.331125],[0.000000,0.000000,1.000000,0.000000],[0,0,-1,0],[9E+09,9E+09,9E+09,9E+09,9E+09,9E+09]];
    CONST robtarget T2750:=[[-23.854220,20.921970,2.331125],[0.000000,0.000000,1.000000,0.000000],[0,0,-1,0],[9E+09,9E+09,9E+09,9E+09,9E+09,9E+09]];
    CONST robtarget T2760:=[[-22.354220,-22.610029,2.331125],[0.000000,0.000000,1.000000,0.000000],[0,0,-1,0],[9E+09,9E+09,9E+09,9E+09,9E+09,9E+09]];
    CONST robtarget T2770:=[[-22.354220,20.921970,2.331125],[0.000000,0.000000,1.000000,0.000000],[0,0,-1,0],[9E+09,9E+09,9E+09,9E+09,9E+09,9E+09]];
    CONST robtarget T2780:=[[-20.854220,-22.610029,2.331125],[0.000000,0.000000,1.000000,0.000000],[0,0,-1,0],[9E+09,9E+09,9E+09,9E+09,9E+09,9E+09]];
    CONST robtarget T2790:=[[-20.854220,20.921970,2.331125],[0.000000,0.000000,1.000000,0.000000],[0,0,-1,0],[9E+09,9E+09,9E+09,9E+09,9E+09,9E+09]];
    CONST robtarget T2800:=[[-19.354220,-22.610029,2.331125],[0.000000,0.000000,1.000000,0.000000],[0,0,-1,0],[9E+09,9E+09,9E+09,9E+09,9E+09,9E+09]];
    CONST robtarget T2810:=[[-19.354220,20.921970,2.331125],[0.000000,0.000000,1.000000,0.000000],[0,0,-1,0],[9E+09,9E+09,9E+09,9E+09,9E+09,9E+09]];
    CONST robtarget T2820:=[[-17.854220,-22.610029,2.331125],[0.000000,0.000000,1.000000,0.000000],[0,0,-1,0],[9E+09,9E+09,9E+09,9E+09,9E+09,9E+09]];
    CONST robtarget T2830:=[[-17.854220,20.921970,2.331125],[0.000000,0.000000,1.000000,0.000000],[0,0,-1,0],[9E+09,9E+09,9E+09,9E+09,9E+09,9E+09]];
    CONST robtarget T2840:=[[-16.354220,-22.610029,2.331125],[0.000000,0.000000,1.000000,0.000000],[0,0,-1,0],[9E+09,9E+09,9E+09,9E+09,9E+09,9E+09]];
    CONST robtarget T2850:=[[-16.354220,20.921970,2.331125],[0.000000,0.000000,1.000000,0.000000],[0,0,-1,0],[9E+09,9E+09,9E+09,9E+09,9E+09,9E+09]];
    CONST robtarget T2860:=[[-14.854220,-22.610029,2.331125],[0.000000,0.000000,1.000000,0.000000],[0,0,-1,0],[9E+09,9E+09,9E+09,9E+09,9E+09,9E+09]];
    CONST robtarget T2870:=[[-14.854220,20.921970,2.331125],[0.000000,0.000000,1.000000,0.000000],[0,0,-1,0],[9E+09,9E+09,9E+09,9E+09,9E+09,9E+09]];
    CONST robtarget T2880:=[[-13.354220,-22.610029,2.331125],[0.000000,0.000000,1.000000,0.000000],[0,0,-1,0],[9E+09,9E+09,9E+09,9E+09,9E+09,9E+09]];
    CONST robtarget T2890:=[[-13.354220,20.921970,2.331125],[0.000000,0.000000,1.000000,0.000000],[0,0,-1,0],[9E+09,9E+09,9E+09,9E+09,9E+09,9E+09]];
    CONST robtarget T2900:=[[-11.854220,-22.610029,2.331125],[0.000000,0.000000,1.000000,0.000000],[0,0,-1,0],[9E+09,9E+09,9E+09,9E+09,9E+09,9E+09]];
    CONST robtarget T2910:=[[-11.854220,20.921970,2.331125],[0.000000,0.000000,1.000000,0.000000],[0,0,-1,0],[9E+09,9E+09,9E+09,9E+09,9E+09,9E+09]];
    CONST robtarget T2920:=[[-10.354220,-22.610029,2.331125],[0.000000,0.000000,1.000000,0.000000],[0,0,-1,0],[9E+09,9E+09,9E+09,9E+09,9E+09,9E+09]];
    CONST robtarget T2930:=[[-10.354220,20.921970,2.331125],[0.000000,0.000000,1.000000,0.000000],[0,0,-1,0],[9E+09,9E+09,9E+09,9E+09,9E+09,9E+09]];
    CONST robtarget T2940:=[[-8.854220,-22.610029,2.331125],[0.000000,0.000000,1.000000,0.000000],[0,0,-1,0],[9E+09,9E+09,9E+09,9E+09,9E+09,9E+09]];
    CONST robtarget T2950:=[[-8.854220,20.921970,2.331125],[0.000000,0.000000,1.000000,0.000000],[0,0,-1,0],[9E+09,9E+09,9E+09,9E+09,9E+09,9E+09]];
    CONST robtarget T2960:=[[-7.354220,-22.610029,2.331125],[0.000000,0.000000,1.000000,0.000000],[0,0,-1,0],[9E+09,9E+09,9E+09,9E+09,9E+09,9E+09]];
    CONST robtarget T2970:=[[-7.354220,20.921970,2.331125],[0.000000,0.000000,1.000000,0.000000],[0,0,-1,0],[9E+09,9E+09,9E+09,9E+09,9E+09,9E+09]];
    CONST robtarget T2980:=[[-5.854220,-22.610029,2.331125],[0.000000,0.000000,1.000000,0.000000],[0,0,-1,0],[9E+09,9E+09,9E+09,9E+09,9E+09,9E+09]];
    CONST robtarget T2990:=[[-5.854220,20.921970,2.331125],[0.000000,0.000000,1.000000,0.000000],[0,0,-1,0],[9E+09,9E+09,9E+09,9E+09,9E+09,9E+09]];
    CONST robtarget T3000:=[[-4.354220,-22.610029,2.331125],[0.000000,0.000000,1.000000,0.000000],[0,0,-1,0],[9E+09,9E+09,9E+09,9E+09,9E+09,9E+09]];
    CONST robtarget T3010:=[[-4.354220,20.921970,2.331125],[0.000000,0.000000,1.000000,0.000000],[0,0,-1,0],[9E+09,9E+09,9E+09,9E+09,9E+09,9E+09]];
    CONST robtarget T3020:=[[-2.854220,-22.610029,2.331125],[0.000000,0.000000,1.000000,0.000000],[0,0,-1,0],[9E+09,9E+09,9E+09,9E+09,9E+09,9E+09]];
    CONST robtarget T3030:=[[-2.854220,20.921970,2.331125],[0.000000,0.000000,1.000000,0.000000],[0,0,-1,0],[9E+09,9E+09,9E+09,9E+09,9E+09,9E+09]];
    CONST robtarget T3040:=[[-1.354220,-22.610029,2.331125],[0.000000,0.000000,1.000000,0.000000],[0,0,-1,0],[9E+09,9E+09,9E+09,9E+09,9E+09,9E+09]];
    CONST robtarget T3050:=[[-1.354220,20.921970,2.331125],[0.000000,0.000000,1.000000,0.000000],[0,0,-1,0],[9E+09,9E+09,9E+09,9E+09,9E+09,9E+09]];
    CONST robtarget T3060:=[[0.145780,-22.610029,2.331125],[0.000000,0.000000,1.000000,0.000000],[0,0,-1,0],[9E+09,9E+09,9E+09,9E+09,9E+09,9E+09]];
    CONST robtarget T3070:=[[0.145780,20.921970,2.331125],[0.000000,0.000000,1.000000,0.000000],[0,0,-1,0],[9E+09,9E+09,9E+09,9E+09,9E+09,9E+09]];
    CONST robtarget T3080:=[[1.645780,-22.610029,2.331125],[0.000000,0.000000,1.000000,0.000000],[0,0,-1,0],[9E+09,9E+09,9E+09,9E+09,9E+09,9E+09]];
    CONST robtarget T3090:=[[1.645780,20.921970,2.331125],[0.000000,0.000000,1.000000,0.000000],[0,0,-1,0],[9E+09,9E+09,9E+09,9E+09,9E+09,9E+09]];
    CONST robtarget T3100:=[[3.145780,-22.610029,2.331125],[0.000000,0.000000,1.000000,0.000000],[0,0,-1,0],[9E+09,9E+09,9E+09,9E+09,9E+09,9E+09]];
    CONST robtarget T3110:=[[3.145780,20.921970,2.331125],[0.000000,0.000000,1.000000,0.000000],[0,0,-1,0],[9E+09,9E+09,9E+09,9E+09,9E+09,9E+09]];
    CONST robtarget T3120:=[[4.645780,-22.610029,2.331125],[0.000000,0.000000,1.000000,0.000000],[0,0,-1,0],[9E+09,9E+09,9E+09,9E+09,9E+09,9E+09]];
    CONST robtarget T3130:=[[4.645780,20.921970,2.331125],[0.000000,0.000000,1.000000,0.000000],[0,0,-1,0],[9E+09,9E+09,9E+09,9E+09,9E+09,9E+09]];
    CONST robtarget T3140:=[[6.145780,-22.610029,2.331125],[0.000000,0.000000,1.000000,0.000000],[0,0,-1,0],[9E+09,9E+09,9E+09,9E+09,9E+09,9E+09]];
    CONST robtarget T3150:=[[6.145780,20.921970,2.331125],[0.000000,0.000000,1.000000,0.000000],[0,0,-1,0],[9E+09,9E+09,9E+09,9E+09,9E+09,9E+09]];
    CONST robtarget T3160:=[[7.645780,-22.610029,2.331125],[0.000000,0.000000,1.000000,0.000000],[0,0,-1,0],[9E+09,9E+09,9E+09,9E+09,9E+09,9E+09]];
    CONST robtarget T3170:=[[7.645780,20.921970,2.331125],[0.000000,0.000000,1.000000,0.000000],[0,0,-1,0],[9E+09,9E+09,9E+09,9E+09,9E+09,9E+09]];
    CONST robtarget T3180:=[[9.145780,-22.610029,2.331125],[0.000000,0.000000,1.000000,0.000000],[0,0,-1,0],[9E+09,9E+09,9E+09,9E+09,9E+09,9E+09]];
    CONST robtarget T3190:=[[9.145780,20.921970,2.331125],[0.000000,0.000000,1.000000,0.000000],[0,0,-1,0],[9E+09,9E+09,9E+09,9E+09,9E+09,9E+09]];
    CONST robtarget T3200:=[[10.645780,-22.610029,2.331125],[0.000000,0.000000,1.000000,0.000000],[0,0,-1,0],[9E+09,9E+09,9E+09,9E+09,9E+09,9E+09]];
    CONST robtarget T3210:=[[10.645780,20.921970,2.331125],[0.000000,0.000000,1.000000,0.000000],[0,0,-1,0],[9E+09,9E+09,9E+09,9E+09,9E+09,9E+09]];
    CONST robtarget T3220:=[[12.145780,-22.610029,2.331125],[0.000000,0.000000,1.000000,0.000000],[0,0,-1,0],[9E+09,9E+09,9E+09,9E+09,9E+09,9E+09]];
    CONST robtarget T3230:=[[12.145780,20.921970,2.331125],[0.000000,0.000000,1.000000,0.000000],[0,0,-1,0],[9E+09,9E+09,9E+09,9E+09,9E+09,9E+09]];
    CONST robtarget T3240:=[[13.645780,-22.610029,2.331125],[0.000000,0.000000,1.000000,0.000000],[0,0,-1,0],[9E+09,9E+09,9E+09,9E+09,9E+09,9E+09]];
    CONST robtarget T3250:=[[13.645780,20.921970,2.331125],[0.000000,0.000000,1.000000,0.000000],[0,0,-1,0],[9E+09,9E+09,9E+09,9E+09,9E+09,9E+09]];
    CONST robtarget T3260:=[[15.145780,-22.610029,2.331125],[0.000000,0.000000,1.000000,0.000000],[0,0,-1,0],[9E+09,9E+09,9E+09,9E+09,9E+09,9E+09]];
    CONST robtarget T3270:=[[15.145780,20.921970,2.331125],[0.000000,0.000000,1.000000,0.000000],[0,0,-1,0],[9E+09,9E+09,9E+09,9E+09,9E+09,9E+09]];
    CONST robtarget T3280:=[[16.645780,-22.610029,2.331125],[0.000000,0.000000,1.000000,0.000000],[0,0,-1,0],[9E+09,9E+09,9E+09,9E+09,9E+09,9E+09]];
    CONST robtarget T3290:=[[16.645780,20.921970,2.331125],[0.000000,0.000000,1.000000,0.000000],[0,0,-1,0],[9E+09,9E+09,9E+09,9E+09,9E+09,9E+09]];
    CONST robtarget T3300:=[[18.145780,-22.610029,2.331125],[0.000000,0.000000,1.000000,0.000000],[0,0,-1,0],[9E+09,9E+09,9E+09,9E+09,9E+09,9E+09]];
    CONST robtarget T3310:=[[18.145780,20.921970,2.331125],[0.000000,0.000000,1.000000,0.000000],[0,0,-1,0],[9E+09,9E+09,9E+09,9E+09,9E+09,9E+09]];
    CONST robtarget T3320:=[[19.645780,-22.610029,2.331125],[0.000000,0.000000,1.000000,0.000000],[0,0,-1,0],[9E+09,9E+09,9E+09,9E+09,9E+09,9E+09]];
    CONST robtarget T3330:=[[19.645780,20.921970,2.331125],[0.000000,0.000000,1.000000,0.000000],[0,0,-1,0],[9E+09,9E+09,9E+09,9E+09,9E+09,9E+09]];
    CONST robtarget T3340:=[[21.145780,-22.610029,2.331125],[0.000000,0.000000,1.000000,0.000000],[0,0,-1,0],[9E+09,9E+09,9E+09,9E+09,9E+09,9E+09]];
    CONST robtarget T3350:=[[21.145780,20.921970,2.331125],[0.000000,0.000000,1.000000,0.000000],[0,0,-1,0],[9E+09,9E+09,9E+09,9E+09,9E+09,9E+09]];
    CONST robtarget T3360:=[[22.645780,-22.610029,2.331125],[0.000000,0.000000,1.000000,0.000000],[0,0,-1,0],[9E+09,9E+09,9E+09,9E+09,9E+09,9E+09]];
    CONST robtarget T3370:=[[22.645780,20.921970,2.331125],[0.000000,0.000000,1.000000,0.000000],[0,0,-1,0],[9E+09,9E+09,9E+09,9E+09,9E+09,9E+09]];
    CONST robtarget T3380:=[[24.145780,-22.610029,2.331125],[0.000000,0.000000,1.000000,0.000000],[0,0,-1,0],[9E+09,9E+09,9E+09,9E+09,9E+09,9E+09]];
    CONST robtarget T3390:=[[24.145780,20.921970,2.331125],[0.000000,0.000000,1.000000,0.000000],[0,0,-1,0],[9E+09,9E+09,9E+09,9E+09,9E+09,9E+09]];
    CONST robtarget T3400:=[[-25.354220,-22.610029,2.831125],[0.000000,0.000000,1.000000,0.000000],[0,0,-1,0],[9E+09,9E+09,9E+09,9E+09,9E+09,9E+09]];
    CONST robtarget T3410:=[[-25.354220,20.921970,2.831125],[0.000000,0.000000,1.000000,0.000000],[0,0,-1,0],[9E+09,9E+09,9E+09,9E+09,9E+09,9E+09]];
    CONST robtarget T3420:=[[-23.854220,-22.610029,2.831125],[0.000000,0.000000,1.000000,0.000000],[0,0,-1,0],[9E+09,9E+09,9E+09,9E+09,9E+09,9E+09]];
    CONST robtarget T3430:=[[-23.854220,20.921970,2.831125],[0.000000,0.000000,1.000000,0.000000],[0,0,-1,0],[9E+09,9E+09,9E+09,9E+09,9E+09,9E+09]];
    CONST robtarget T3440:=[[-22.354220,-22.610029,2.831125],[0.000000,0.000000,1.000000,0.000000],[0,0,-1,0],[9E+09,9E+09,9E+09,9E+09,9E+09,9E+09]];
    CONST robtarget T3450:=[[-22.354220,20.921970,2.831125],[0.000000,0.000000,1.000000,0.000000],[0,0,-1,0],[9E+09,9E+09,9E+09,9E+09,9E+09,9E+09]];
    CONST robtarget T3460:=[[-20.854220,-22.610029,2.831125],[0.000000,0.000000,1.000000,0.000000],[0,0,-1,0],[9E+09,9E+09,9E+09,9E+09,9E+09,9E+09]];
    CONST robtarget T3470:=[[-20.854220,20.921970,2.831125],[0.000000,0.000000,1.000000,0.000000],[0,0,-1,0],[9E+09,9E+09,9E+09,9E+09,9E+09,9E+09]];
    CONST robtarget T3480:=[[-19.354220,-22.610029,2.831125],[0.000000,0.000000,1.000000,0.000000],[0,0,-1,0],[9E+09,9E+09,9E+09,9E+09,9E+09,9E+09]];
    CONST robtarget T3490:=[[-19.354220,20.921970,2.831125],[0.000000,0.000000,1.000000,0.000000],[0,0,-1,0],[9E+09,9E+09,9E+09,9E+09,9E+09,9E+09]];
    CONST robtarget T3500:=[[-17.854220,-22.610029,2.831125],[0.000000,0.000000,1.000000,0.000000],[0,0,-1,0],[9E+09,9E+09,9E+09,9E+09,9E+09,9E+09]];
    CONST robtarget T3510:=[[-17.854220,20.921970,2.831125],[0.000000,0.000000,1.000000,0.000000],[0,0,-1,0],[9E+09,9E+09,9E+09,9E+09,9E+09,9E+09]];
    CONST robtarget T3520:=[[-16.354220,-22.610029,2.831125],[0.000000,0.000000,1.000000,0.000000],[0,0,-1,0],[9E+09,9E+09,9E+09,9E+09,9E+09,9E+09]];
    CONST robtarget T3530:=[[-16.354220,20.921970,2.831125],[0.000000,0.000000,1.000000,0.000000],[0,0,-1,0],[9E+09,9E+09,9E+09,9E+09,9E+09,9E+09]];
    CONST robtarget T3540:=[[-14.854220,-22.610029,2.831125],[0.000000,0.000000,1.000000,0.000000],[0,0,-1,0],[9E+09,9E+09,9E+09,9E+09,9E+09,9E+09]];
    CONST robtarget T3550:=[[-14.854220,20.921970,2.831125],[0.000000,0.000000,1.000000,0.000000],[0,0,-1,0],[9E+09,9E+09,9E+09,9E+09,9E+09,9E+09]];
    CONST robtarget T3560:=[[-13.354220,-22.610029,2.831125],[0.000000,0.000000,1.000000,0.000000],[0,0,-1,0],[9E+09,9E+09,9E+09,9E+09,9E+09,9E+09]];
    CONST robtarget T3570:=[[-13.354220,20.921970,2.831125],[0.000000,0.000000,1.000000,0.000000],[0,0,-1,0],[9E+09,9E+09,9E+09,9E+09,9E+09,9E+09]];
    CONST robtarget T3580:=[[-11.854220,-22.610029,2.831125],[0.000000,0.000000,1.000000,0.000000],[0,0,-1,0],[9E+09,9E+09,9E+09,9E+09,9E+09,9E+09]];
    CONST robtarget T3590:=[[-11.854220,20.921970,2.831125],[0.000000,0.000000,1.000000,0.000000],[0,0,-1,0],[9E+09,9E+09,9E+09,9E+09,9E+09,9E+09]];
    CONST robtarget T3600:=[[-10.354220,-22.610029,2.831125],[0.000000,0.000000,1.000000,0.000000],[0,0,-1,0],[9E+09,9E+09,9E+09,9E+09,9E+09,9E+09]];
    CONST robtarget T3610:=[[-10.354220,20.921970,2.831125],[0.000000,0.000000,1.000000,0.000000],[0,0,-1,0],[9E+09,9E+09,9E+09,9E+09,9E+09,9E+09]];
    CONST robtarget T3620:=[[-8.854220,-22.610029,2.831125],[0.000000,0.000000,1.000000,0.000000],[0,0,-1,0],[9E+09,9E+09,9E+09,9E+09,9E+09,9E+09]];
    CONST robtarget T3630:=[[-8.854220,20.921970,2.831125],[0.000000,0.000000,1.000000,0.000000],[0,0,-1,0],[9E+09,9E+09,9E+09,9E+09,9E+09,9E+09]];
    CONST robtarget T3640:=[[-7.354220,-22.610029,2.831125],[0.000000,0.000000,1.000000,0.000000],[0,0,-1,0],[9E+09,9E+09,9E+09,9E+09,9E+09,9E+09]];
    CONST robtarget T3650:=[[-7.354220,20.921970,2.831125],[0.000000,0.000000,1.000000,0.000000],[0,0,-1,0],[9E+09,9E+09,9E+09,9E+09,9E+09,9E+09]];
    CONST robtarget T3660:=[[-5.854220,-22.610029,2.831125],[0.000000,0.000000,1.000000,0.000000],[0,0,-1,0],[9E+09,9E+09,9E+09,9E+09,9E+09,9E+09]];
    CONST robtarget T3670:=[[-5.854220,20.921970,2.831125],[0.000000,0.000000,1.000000,0.000000],[0,0,-1,0],[9E+09,9E+09,9E+09,9E+09,9E+09,9E+09]];
    CONST robtarget T3680:=[[-4.354220,-22.610029,2.831125],[0.000000,0.000000,1.000000,0.000000],[0,0,-1,0],[9E+09,9E+09,9E+09,9E+09,9E+09,9E+09]];
    CONST robtarget T3690:=[[-4.354220,20.921970,2.831125],[0.000000,0.000000,1.000000,0.000000],[0,0,-1,0],[9E+09,9E+09,9E+09,9E+09,9E+09,9E+09]];
    CONST robtarget T3700:=[[-2.854220,-22.610029,2.831125],[0.000000,0.000000,1.000000,0.000000],[0,0,-1,0],[9E+09,9E+09,9E+09,9E+09,9E+09,9E+09]];
    CONST robtarget T3710:=[[-2.854220,20.921970,2.831125],[0.000000,0.000000,1.000000,0.000000],[0,0,-1,0],[9E+09,9E+09,9E+09,9E+09,9E+09,9E+09]];
    CONST robtarget T3720:=[[-1.354220,-22.610029,2.831125],[0.000000,0.000000,1.000000,0.000000],[0,0,-1,0],[9E+09,9E+09,9E+09,9E+09,9E+09,9E+09]];
    CONST robtarget T3730:=[[-1.354220,20.921970,2.831125],[0.000000,0.000000,1.000000,0.000000],[0,0,-1,0],[9E+09,9E+09,9E+09,9E+09,9E+09,9E+09]];
    CONST robtarget T3740:=[[0.145780,-22.610029,2.831125],[0.000000,0.000000,1.000000,0.000000],[0,0,-1,0],[9E+09,9E+09,9E+09,9E+09,9E+09,9E+09]];
    CONST robtarget T3750:=[[0.145780,20.921970,2.831125],[0.000000,0.000000,1.000000,0.000000],[0,0,-1,0],[9E+09,9E+09,9E+09,9E+09,9E+09,9E+09]];
    CONST robtarget T3760:=[[1.645780,-22.610029,2.831125],[0.000000,0.000000,1.000000,0.000000],[0,0,-1,0],[9E+09,9E+09,9E+09,9E+09,9E+09,9E+09]];
    CONST robtarget T3770:=[[1.645780,20.921970,2.831125],[0.000000,0.000000,1.000000,0.000000],[0,0,-1,0],[9E+09,9E+09,9E+09,9E+09,9E+09,9E+09]];
    CONST robtarget T3780:=[[3.145780,-22.610029,2.831125],[0.000000,0.000000,1.000000,0.000000],[0,0,-1,0],[9E+09,9E+09,9E+09,9E+09,9E+09,9E+09]];
    CONST robtarget T3790:=[[3.145780,20.921970,2.831125],[0.000000,0.000000,1.000000,0.000000],[0,0,-1,0],[9E+09,9E+09,9E+09,9E+09,9E+09,9E+09]];
    CONST robtarget T3800:=[[4.645780,-22.610029,2.831125],[0.000000,0.000000,1.000000,0.000000],[0,0,-1,0],[9E+09,9E+09,9E+09,9E+09,9E+09,9E+09]];
    CONST robtarget T3810:=[[4.645780,20.921970,2.831125],[0.000000,0.000000,1.000000,0.000000],[0,0,-1,0],[9E+09,9E+09,9E+09,9E+09,9E+09,9E+09]];
    CONST robtarget T3820:=[[6.145780,-22.610029,2.831125],[0.000000,0.000000,1.000000,0.000000],[0,0,-1,0],[9E+09,9E+09,9E+09,9E+09,9E+09,9E+09]];
    CONST robtarget T3830:=[[6.145780,20.921970,2.831125],[0.000000,0.000000,1.000000,0.000000],[0,0,-1,0],[9E+09,9E+09,9E+09,9E+09,9E+09,9E+09]];
    CONST robtarget T3840:=[[7.645780,-22.610029,2.831125],[0.000000,0.000000,1.000000,0.000000],[0,0,-1,0],[9E+09,9E+09,9E+09,9E+09,9E+09,9E+09]];
    CONST robtarget T3850:=[[7.645780,20.921970,2.831125],[0.000000,0.000000,1.000000,0.000000],[0,0,-1,0],[9E+09,9E+09,9E+09,9E+09,9E+09,9E+09]];
    CONST robtarget T3860:=[[9.145780,-22.610029,2.831125],[0.000000,0.000000,1.000000,0.000000],[0,0,-1,0],[9E+09,9E+09,9E+09,9E+09,9E+09,9E+09]];
    CONST robtarget T3870:=[[9.145780,20.921970,2.831125],[0.000000,0.000000,1.000000,0.000000],[0,0,-1,0],[9E+09,9E+09,9E+09,9E+09,9E+09,9E+09]];
    CONST robtarget T3880:=[[10.645780,-22.610029,2.831125],[0.000000,0.000000,1.000000,0.000000],[0,0,-1,0],[9E+09,9E+09,9E+09,9E+09,9E+09,9E+09]];
    CONST robtarget T3890:=[[10.645780,20.921970,2.831125],[0.000000,0.000000,1.000000,0.000000],[0,0,-1,0],[9E+09,9E+09,9E+09,9E+09,9E+09,9E+09]];
    CONST robtarget T3900:=[[12.145780,-22.610029,2.831125],[0.000000,0.000000,1.000000,0.000000],[0,0,-1,0],[9E+09,9E+09,9E+09,9E+09,9E+09,9E+09]];
    CONST robtarget T3910:=[[12.145780,20.921970,2.831125],[0.000000,0.000000,1.000000,0.000000],[0,0,-1,0],[9E+09,9E+09,9E+09,9E+09,9E+09,9E+09]];
    CONST robtarget T3920:=[[13.645780,-22.610029,2.831125],[0.000000,0.000000,1.000000,0.000000],[0,0,-1,0],[9E+09,9E+09,9E+09,9E+09,9E+09,9E+09]];
    CONST robtarget T3930:=[[13.645780,20.921970,2.831125],[0.000000,0.000000,1.000000,0.000000],[0,0,-1,0],[9E+09,9E+09,9E+09,9E+09,9E+09,9E+09]];
    CONST robtarget T3940:=[[15.145780,-22.610029,2.831125],[0.000000,0.000000,1.000000,0.000000],[0,0,-1,0],[9E+09,9E+09,9E+09,9E+09,9E+09,9E+09]];
    CONST robtarget T3950:=[[15.145780,20.921970,2.831125],[0.000000,0.000000,1.000000,0.000000],[0,0,-1,0],[9E+09,9E+09,9E+09,9E+09,9E+09,9E+09]];
    CONST robtarget T3960:=[[16.645780,-22.610029,2.831125],[0.000000,0.000000,1.000000,0.000000],[0,0,-1,0],[9E+09,9E+09,9E+09,9E+09,9E+09,9E+09]];
    CONST robtarget T3970:=[[16.645780,20.921970,2.831125],[0.000000,0.000000,1.000000,0.000000],[0,0,-1,0],[9E+09,9E+09,9E+09,9E+09,9E+09,9E+09]];
    CONST robtarget T3980:=[[18.145780,-22.610029,2.831125],[0.000000,0.000000,1.000000,0.000000],[0,0,-1,0],[9E+09,9E+09,9E+09,9E+09,9E+09,9E+09]];
    CONST robtarget T3990:=[[18.145780,20.921970,2.831125],[0.000000,0.000000,1.000000,0.000000],[0,0,-1,0],[9E+09,9E+09,9E+09,9E+09,9E+09,9E+09]];
    CONST robtarget T4000:=[[19.645780,-22.610029,2.831125],[0.000000,0.000000,1.000000,0.000000],[0,0,-1,0],[9E+09,9E+09,9E+09,9E+09,9E+09,9E+09]];
    CONST robtarget T4010:=[[19.645780,20.921970,2.831125],[0.000000,0.000000,1.000000,0.000000],[0,0,-1,0],[9E+09,9E+09,9E+09,9E+09,9E+09,9E+09]];
    CONST robtarget T4020:=[[21.145780,-22.610029,2.831125],[0.000000,0.000000,1.000000,0.000000],[0,0,-1,0],[9E+09,9E+09,9E+09,9E+09,9E+09,9E+09]];
    CONST robtarget T4030:=[[21.145780,20.921970,2.831125],[0.000000,0.000000,1.000000,0.000000],[0,0,-1,0],[9E+09,9E+09,9E+09,9E+09,9E+09,9E+09]];
    CONST robtarget T4040:=[[22.645780,-22.610029,2.831125],[0.000000,0.000000,1.000000,0.000000],[0,0,-1,0],[9E+09,9E+09,9E+09,9E+09,9E+09,9E+09]];
    CONST robtarget T4050:=[[22.645780,20.921970,2.831125],[0.000000,0.000000,1.000000,0.000000],[0,0,-1,0],[9E+09,9E+09,9E+09,9E+09,9E+09,9E+09]];
    CONST robtarget T4060:=[[24.145780,-22.610029,2.831125],[0.000000,0.000000,1.000000,0.000000],[0,0,-1,0],[9E+09,9E+09,9E+09,9E+09,9E+09,9E+09]];
    CONST robtarget T4070:=[[24.145780,20.921970,2.831125],[0.000000,0.000000,1.000000,0.000000],[0,0,-1,0],[9E+09,9E+09,9E+09,9E+09,9E+09,9E+09]];
    CONST robtarget T4080:=[[-25.354220,-22.610029,3.331125],[0.000000,0.000000,1.000000,0.000000],[0,0,-1,0],[9E+09,9E+09,9E+09,9E+09,9E+09,9E+09]];
    CONST robtarget T4090:=[[-25.354220,20.921970,3.331125],[0.000000,0.000000,1.000000,0.000000],[0,0,-1,0],[9E+09,9E+09,9E+09,9E+09,9E+09,9E+09]];
    CONST robtarget T4100:=[[-23.854220,-22.610029,3.331125],[0.000000,0.000000,1.000000,0.000000],[0,0,-1,0],[9E+09,9E+09,9E+09,9E+09,9E+09,9E+09]];
    CONST robtarget T4110:=[[-23.854220,20.921970,3.331125],[0.000000,0.000000,1.000000,0.000000],[0,0,-1,0],[9E+09,9E+09,9E+09,9E+09,9E+09,9E+09]];
    CONST robtarget T4120:=[[-22.354220,-22.610029,3.331125],[0.000000,0.000000,1.000000,0.000000],[0,0,-1,0],[9E+09,9E+09,9E+09,9E+09,9E+09,9E+09]];
    CONST robtarget T4130:=[[-22.354220,20.921970,3.331125],[0.000000,0.000000,1.000000,0.000000],[0,0,-1,0],[9E+09,9E+09,9E+09,9E+09,9E+09,9E+09]];
    CONST robtarget T4140:=[[-20.854220,-22.610029,3.331125],[0.000000,0.000000,1.000000,0.000000],[0,0,-1,0],[9E+09,9E+09,9E+09,9E+09,9E+09,9E+09]];
    CONST robtarget T4150:=[[-20.854220,20.921970,3.331125],[0.000000,0.000000,1.000000,0.000000],[0,0,-1,0],[9E+09,9E+09,9E+09,9E+09,9E+09,9E+09]];
    CONST robtarget T4160:=[[-19.354220,-22.610029,3.331125],[0.000000,0.000000,1.000000,0.000000],[0,0,-1,0],[9E+09,9E+09,9E+09,9E+09,9E+09,9E+09]];
    CONST robtarget T4170:=[[-19.354220,20.921970,3.331125],[0.000000,0.000000,1.000000,0.000000],[0,0,-1,0],[9E+09,9E+09,9E+09,9E+09,9E+09,9E+09]];
    CONST robtarget T4180:=[[-17.854220,-22.610029,3.331125],[0.000000,0.000000,1.000000,0.000000],[0,0,-1,0],[9E+09,9E+09,9E+09,9E+09,9E+09,9E+09]];
    CONST robtarget T4190:=[[-17.854220,20.921970,3.331125],[0.000000,0.000000,1.000000,0.000000],[0,0,-1,0],[9E+09,9E+09,9E+09,9E+09,9E+09,9E+09]];
    CONST robtarget T4200:=[[-16.354220,-22.610029,3.331125],[0.000000,0.000000,1.000000,0.000000],[0,0,-1,0],[9E+09,9E+09,9E+09,9E+09,9E+09,9E+09]];
    CONST robtarget T4210:=[[-16.354220,20.921970,3.331125],[0.000000,0.000000,1.000000,0.000000],[0,0,-1,0],[9E+09,9E+09,9E+09,9E+09,9E+09,9E+09]];
    CONST robtarget T4220:=[[-14.854220,-22.610029,3.331125],[0.000000,0.000000,1.000000,0.000000],[0,0,-1,0],[9E+09,9E+09,9E+09,9E+09,9E+09,9E+09]];
    CONST robtarget T4230:=[[-14.854220,20.921970,3.331125],[0.000000,0.000000,1.000000,0.000000],[0,0,-1,0],[9E+09,9E+09,9E+09,9E+09,9E+09,9E+09]];
    CONST robtarget T4240:=[[-13.354220,-22.610029,3.331125],[0.000000,0.000000,1.000000,0.000000],[0,0,-1,0],[9E+09,9E+09,9E+09,9E+09,9E+09,9E+09]];
    CONST robtarget T4250:=[[-13.354220,20.921970,3.331125],[0.000000,0.000000,1.000000,0.000000],[0,0,-1,0],[9E+09,9E+09,9E+09,9E+09,9E+09,9E+09]];
    CONST robtarget T4260:=[[-11.854220,-22.610029,3.331125],[0.000000,0.000000,1.000000,0.000000],[0,0,-1,0],[9E+09,9E+09,9E+09,9E+09,9E+09,9E+09]];
    CONST robtarget T4270:=[[-11.854220,20.921970,3.331125],[0.000000,0.000000,1.000000,0.000000],[0,0,-1,0],[9E+09,9E+09,9E+09,9E+09,9E+09,9E+09]];
    CONST robtarget T4280:=[[-10.354220,-22.610029,3.331125],[0.000000,0.000000,1.000000,0.000000],[0,0,-1,0],[9E+09,9E+09,9E+09,9E+09,9E+09,9E+09]];
    CONST robtarget T4290:=[[-10.354220,20.921970,3.331125],[0.000000,0.000000,1.000000,0.000000],[0,0,-1,0],[9E+09,9E+09,9E+09,9E+09,9E+09,9E+09]];
    CONST robtarget T4300:=[[-8.854220,-22.610029,3.331125],[0.000000,0.000000,1.000000,0.000000],[0,0,-1,0],[9E+09,9E+09,9E+09,9E+09,9E+09,9E+09]];
    CONST robtarget T4310:=[[-8.854220,20.921970,3.331125],[0.000000,0.000000,1.000000,0.000000],[0,0,-1,0],[9E+09,9E+09,9E+09,9E+09,9E+09,9E+09]];
    CONST robtarget T4320:=[[-7.354220,-22.610029,3.331125],[0.000000,0.000000,1.000000,0.000000],[0,0,-1,0],[9E+09,9E+09,9E+09,9E+09,9E+09,9E+09]];
    CONST robtarget T4330:=[[-7.354220,20.921970,3.331125],[0.000000,0.000000,1.000000,0.000000],[0,0,-1,0],[9E+09,9E+09,9E+09,9E+09,9E+09,9E+09]];
    CONST robtarget T4340:=[[-5.854220,-22.610029,3.331125],[0.000000,0.000000,1.000000,0.000000],[0,0,-1,0],[9E+09,9E+09,9E+09,9E+09,9E+09,9E+09]];
    CONST robtarget T4350:=[[-5.854220,20.921970,3.331125],[0.000000,0.000000,1.000000,0.000000],[0,0,-1,0],[9E+09,9E+09,9E+09,9E+09,9E+09,9E+09]];
    CONST robtarget T4360:=[[-4.354220,-22.610029,3.331125],[0.000000,0.000000,1.000000,0.000000],[0,0,-1,0],[9E+09,9E+09,9E+09,9E+09,9E+09,9E+09]];
    CONST robtarget T4370:=[[-4.354220,20.921970,3.331125],[0.000000,0.000000,1.000000,0.000000],[0,0,-1,0],[9E+09,9E+09,9E+09,9E+09,9E+09,9E+09]];
    CONST robtarget T4380:=[[-2.854220,-22.610029,3.331125],[0.000000,0.000000,1.000000,0.000000],[0,0,-1,0],[9E+09,9E+09,9E+09,9E+09,9E+09,9E+09]];
    CONST robtarget T4390:=[[-2.854220,20.921970,3.331125],[0.000000,0.000000,1.000000,0.000000],[0,0,-1,0],[9E+09,9E+09,9E+09,9E+09,9E+09,9E+09]];
    CONST robtarget T4400:=[[-1.354220,-22.610029,3.331125],[0.000000,0.000000,1.000000,0.000000],[0,0,-1,0],[9E+09,9E+09,9E+09,9E+09,9E+09,9E+09]];
    CONST robtarget T4410:=[[-1.354220,20.921970,3.331125],[0.000000,0.000000,1.000000,0.000000],[0,0,-1,0],[9E+09,9E+09,9E+09,9E+09,9E+09,9E+09]];
    CONST robtarget T4420:=[[0.145780,-22.610029,3.331125],[0.000000,0.000000,1.000000,0.000000],[0,0,-1,0],[9E+09,9E+09,9E+09,9E+09,9E+09,9E+09]];
    CONST robtarget T4430:=[[0.145780,20.921970,3.331125],[0.000000,0.000000,1.000000,0.000000],[0,0,-1,0],[9E+09,9E+09,9E+09,9E+09,9E+09,9E+09]];
    CONST robtarget T4440:=[[1.645780,-22.610029,3.331125],[0.000000,0.000000,1.000000,0.000000],[0,0,-1,0],[9E+09,9E+09,9E+09,9E+09,9E+09,9E+09]];
    CONST robtarget T4450:=[[1.645780,20.921970,3.331125],[0.000000,0.000000,1.000000,0.000000],[0,0,-1,0],[9E+09,9E+09,9E+09,9E+09,9E+09,9E+09]];
    CONST robtarget T4460:=[[3.145780,-22.610029,3.331125],[0.000000,0.000000,1.000000,0.000000],[0,0,-1,0],[9E+09,9E+09,9E+09,9E+09,9E+09,9E+09]];
    CONST robtarget T4470:=[[3.145780,20.921970,3.331125],[0.000000,0.000000,1.000000,0.000000],[0,0,-1,0],[9E+09,9E+09,9E+09,9E+09,9E+09,9E+09]];
    CONST robtarget T4480:=[[4.645780,-22.610029,3.331125],[0.000000,0.000000,1.000000,0.000000],[0,0,-1,0],[9E+09,9E+09,9E+09,9E+09,9E+09,9E+09]];
    CONST robtarget T4490:=[[4.645780,20.921970,3.331125],[0.000000,0.000000,1.000000,0.000000],[0,0,-1,0],[9E+09,9E+09,9E+09,9E+09,9E+09,9E+09]];
    CONST robtarget T4500:=[[6.145780,-22.610029,3.331125],[0.000000,0.000000,1.000000,0.000000],[0,0,-1,0],[9E+09,9E+09,9E+09,9E+09,9E+09,9E+09]];
    CONST robtarget T4510:=[[6.145780,20.921970,3.331125],[0.000000,0.000000,1.000000,0.000000],[0,0,-1,0],[9E+09,9E+09,9E+09,9E+09,9E+09,9E+09]];
    CONST robtarget T4520:=[[7.645780,-22.610029,3.331125],[0.000000,0.000000,1.000000,0.000000],[0,0,-1,0],[9E+09,9E+09,9E+09,9E+09,9E+09,9E+09]];
    CONST robtarget T4530:=[[7.645780,20.921970,3.331125],[0.000000,0.000000,1.000000,0.000000],[0,0,-1,0],[9E+09,9E+09,9E+09,9E+09,9E+09,9E+09]];
    CONST robtarget T4540:=[[9.145780,-22.610029,3.331125],[0.000000,0.000000,1.000000,0.000000],[0,0,-1,0],[9E+09,9E+09,9E+09,9E+09,9E+09,9E+09]];
    CONST robtarget T4550:=[[9.145780,20.921970,3.331125],[0.000000,0.000000,1.000000,0.000000],[0,0,-1,0],[9E+09,9E+09,9E+09,9E+09,9E+09,9E+09]];
    CONST robtarget T4560:=[[10.645780,-22.610029,3.331125],[0.000000,0.000000,1.000000,0.000000],[0,0,-1,0],[9E+09,9E+09,9E+09,9E+09,9E+09,9E+09]];
    CONST robtarget T4570:=[[10.645780,20.921970,3.331125],[0.000000,0.000000,1.000000,0.000000],[0,0,-1,0],[9E+09,9E+09,9E+09,9E+09,9E+09,9E+09]];
    CONST robtarget T4580:=[[12.145780,-22.610029,3.331125],[0.000000,0.000000,1.000000,0.000000],[0,0,-1,0],[9E+09,9E+09,9E+09,9E+09,9E+09,9E+09]];
    CONST robtarget T4590:=[[12.145780,20.921970,3.331125],[0.000000,0.000000,1.000000,0.000000],[0,0,-1,0],[9E+09,9E+09,9E+09,9E+09,9E+09,9E+09]];
    CONST robtarget T4600:=[[13.645780,-22.610029,3.331125],[0.000000,0.000000,1.000000,0.000000],[0,0,-1,0],[9E+09,9E+09,9E+09,9E+09,9E+09,9E+09]];
    CONST robtarget T4610:=[[13.645780,20.921970,3.331125],[0.000000,0.000000,1.000000,0.000000],[0,0,-1,0],[9E+09,9E+09,9E+09,9E+09,9E+09,9E+09]];
    CONST robtarget T4620:=[[15.145780,-22.610029,3.331125],[0.000000,0.000000,1.000000,0.000000],[0,0,-1,0],[9E+09,9E+09,9E+09,9E+09,9E+09,9E+09]];
    CONST robtarget T4630:=[[15.145780,20.921970,3.331125],[0.000000,0.000000,1.000000,0.000000],[0,0,-1,0],[9E+09,9E+09,9E+09,9E+09,9E+09,9E+09]];
    CONST robtarget T4640:=[[16.645780,-22.610029,3.331125],[0.000000,0.000000,1.000000,0.000000],[0,0,-1,0],[9E+09,9E+09,9E+09,9E+09,9E+09,9E+09]];
    CONST robtarget T4650:=[[16.645780,20.921970,3.331125],[0.000000,0.000000,1.000000,0.000000],[0,0,-1,0],[9E+09,9E+09,9E+09,9E+09,9E+09,9E+09]];
    CONST robtarget T4660:=[[18.145780,-22.610029,3.331125],[0.000000,0.000000,1.000000,0.000000],[0,0,-1,0],[9E+09,9E+09,9E+09,9E+09,9E+09,9E+09]];
    CONST robtarget T4670:=[[18.145780,20.921970,3.331125],[0.000000,0.000000,1.000000,0.000000],[0,0,-1,0],[9E+09,9E+09,9E+09,9E+09,9E+09,9E+09]];
    CONST robtarget T4680:=[[19.645780,-22.610029,3.331125],[0.000000,0.000000,1.000000,0.000000],[0,0,-1,0],[9E+09,9E+09,9E+09,9E+09,9E+09,9E+09]];
    CONST robtarget T4690:=[[19.645780,20.921970,3.331125],[0.000000,0.000000,1.000000,0.000000],[0,0,-1,0],[9E+09,9E+09,9E+09,9E+09,9E+09,9E+09]];
    CONST robtarget T4700:=[[21.145780,-22.610029,3.331125],[0.000000,0.000000,1.000000,0.000000],[0,0,-1,0],[9E+09,9E+09,9E+09,9E+09,9E+09,9E+09]];
    CONST robtarget T4710:=[[21.145780,20.921970,3.331125],[0.000000,0.000000,1.000000,0.000000],[0,0,-1,0],[9E+09,9E+09,9E+09,9E+09,9E+09,9E+09]];
    CONST robtarget T4720:=[[22.645780,-22.610029,3.331125],[0.000000,0.000000,1.000000,0.000000],[0,0,-1,0],[9E+09,9E+09,9E+09,9E+09,9E+09,9E+09]];
    CONST robtarget T4730:=[[22.645780,20.921970,3.331125],[0.000000,0.000000,1.000000,0.000000],[0,0,-1,0],[9E+09,9E+09,9E+09,9E+09,9E+09,9E+09]];
    CONST robtarget T4740:=[[24.145780,-22.610029,3.331125],[0.000000,0.000000,1.000000,0.000000],[0,0,-1,0],[9E+09,9E+09,9E+09,9E+09,9E+09,9E+09]];
    CONST robtarget T4750:=[[24.145780,20.921970,3.331125],[0.000000,0.000000,1.000000,0.000000],[0,0,-1,0],[9E+09,9E+09,9E+09,9E+09,9E+09,9E+09]];
    CONST robtarget T4760:=[[-25.354220,-22.610029,3.831125],[0.000000,0.000000,1.000000,0.000000],[0,0,-1,0],[9E+09,9E+09,9E+09,9E+09,9E+09,9E+09]];
    CONST robtarget T4770:=[[-25.354220,20.921970,3.831125],[0.000000,0.000000,1.000000,0.000000],[0,0,-1,0],[9E+09,9E+09,9E+09,9E+09,9E+09,9E+09]];
    CONST robtarget T4780:=[[-23.854220,-22.610029,3.831125],[0.000000,0.000000,1.000000,0.000000],[0,0,-1,0],[9E+09,9E+09,9E+09,9E+09,9E+09,9E+09]];
    CONST robtarget T4790:=[[-23.854220,20.921970,3.831125],[0.000000,0.000000,1.000000,0.000000],[0,0,-1,0],[9E+09,9E+09,9E+09,9E+09,9E+09,9E+09]];
    CONST robtarget T4800:=[[-22.354220,-22.610029,3.831125],[0.000000,0.000000,1.000000,0.000000],[0,0,-1,0],[9E+09,9E+09,9E+09,9E+09,9E+09,9E+09]];
    CONST robtarget T4810:=[[-22.354220,20.921970,3.831125],[0.000000,0.000000,1.000000,0.000000],[0,0,-1,0],[9E+09,9E+09,9E+09,9E+09,9E+09,9E+09]];
    CONST robtarget T4820:=[[-20.854220,-22.610029,3.831125],[0.000000,0.000000,1.000000,0.000000],[0,0,-1,0],[9E+09,9E+09,9E+09,9E+09,9E+09,9E+09]];
    CONST robtarget T4830:=[[-20.854220,20.921970,3.831125],[0.000000,0.000000,1.000000,0.000000],[0,0,-1,0],[9E+09,9E+09,9E+09,9E+09,9E+09,9E+09]];
    CONST robtarget T4840:=[[-19.354220,-22.610029,3.831125],[0.000000,0.000000,1.000000,0.000000],[0,0,-1,0],[9E+09,9E+09,9E+09,9E+09,9E+09,9E+09]];
    CONST robtarget T4850:=[[-19.354220,20.921970,3.831125],[0.000000,0.000000,1.000000,0.000000],[0,0,-1,0],[9E+09,9E+09,9E+09,9E+09,9E+09,9E+09]];
    CONST robtarget T4860:=[[-17.854220,-22.610029,3.831125],[0.000000,0.000000,1.000000,0.000000],[0,0,-1,0],[9E+09,9E+09,9E+09,9E+09,9E+09,9E+09]];
    CONST robtarget T4870:=[[-17.854220,20.921970,3.831125],[0.000000,0.000000,1.000000,0.000000],[0,0,-1,0],[9E+09,9E+09,9E+09,9E+09,9E+09,9E+09]];
    CONST robtarget T4880:=[[-16.354220,-22.610029,3.831125],[0.000000,0.000000,1.000000,0.000000],[0,0,-1,0],[9E+09,9E+09,9E+09,9E+09,9E+09,9E+09]];
    CONST robtarget T4890:=[[-16.354220,20.921970,3.831125],[0.000000,0.000000,1.000000,0.000000],[0,0,-1,0],[9E+09,9E+09,9E+09,9E+09,9E+09,9E+09]];
    CONST robtarget T4900:=[[-14.854220,-22.610029,3.831125],[0.000000,0.000000,1.000000,0.000000],[0,0,-1,0],[9E+09,9E+09,9E+09,9E+09,9E+09,9E+09]];
    CONST robtarget T4910:=[[-14.854220,20.921970,3.831125],[0.000000,0.000000,1.000000,0.000000],[0,0,-1,0],[9E+09,9E+09,9E+09,9E+09,9E+09,9E+09]];
    CONST robtarget T4920:=[[-13.354220,-22.610029,3.831125],[0.000000,0.000000,1.000000,0.000000],[0,0,-1,0],[9E+09,9E+09,9E+09,9E+09,9E+09,9E+09]];
    CONST robtarget T4930:=[[-13.354220,20.921970,3.831125],[0.000000,0.000000,1.000000,0.000000],[0,0,-1,0],[9E+09,9E+09,9E+09,9E+09,9E+09,9E+09]];
    CONST robtarget T4940:=[[-11.854220,-22.610029,3.831125],[0.000000,0.000000,1.000000,0.000000],[0,0,-1,0],[9E+09,9E+09,9E+09,9E+09,9E+09,9E+09]];
    CONST robtarget T4950:=[[-11.854220,20.921970,3.831125],[0.000000,0.000000,1.000000,0.000000],[0,0,-1,0],[9E+09,9E+09,9E+09,9E+09,9E+09,9E+09]];
    CONST robtarget T4960:=[[-10.354220,-22.610029,3.831125],[0.000000,0.000000,1.000000,0.000000],[0,0,-1,0],[9E+09,9E+09,9E+09,9E+09,9E+09,9E+09]];
    CONST robtarget T4970:=[[-10.354220,20.921970,3.831125],[0.000000,0.000000,1.000000,0.000000],[0,0,-1,0],[9E+09,9E+09,9E+09,9E+09,9E+09,9E+09]];
    CONST robtarget T4980:=[[-8.854220,-22.610029,3.831125],[0.000000,0.000000,1.000000,0.000000],[0,0,-1,0],[9E+09,9E+09,9E+09,9E+09,9E+09,9E+09]];
    CONST robtarget T4990:=[[-8.854220,20.921970,3.831125],[0.000000,0.000000,1.000000,0.000000],[0,0,-1,0],[9E+09,9E+09,9E+09,9E+09,9E+09,9E+09]];
    CONST robtarget T5000:=[[-7.354220,-22.610029,3.831125],[0.000000,0.000000,1.000000,0.000000],[0,0,-1,0],[9E+09,9E+09,9E+09,9E+09,9E+09,9E+09]];
    CONST robtarget T5010:=[[-7.354220,20.921970,3.831125],[0.000000,0.000000,1.000000,0.000000],[0,0,-1,0],[9E+09,9E+09,9E+09,9E+09,9E+09,9E+09]];
    CONST robtarget T5020:=[[-5.854220,-22.610029,3.831125],[0.000000,0.000000,1.000000,0.000000],[0,0,-1,0],[9E+09,9E+09,9E+09,9E+09,9E+09,9E+09]];
    CONST robtarget T5030:=[[-5.854220,20.921970,3.831125],[0.000000,0.000000,1.000000,0.000000],[0,0,-1,0],[9E+09,9E+09,9E+09,9E+09,9E+09,9E+09]];
    CONST robtarget T5040:=[[-4.354220,-22.610029,3.831125],[0.000000,0.000000,1.000000,0.000000],[0,0,-1,0],[9E+09,9E+09,9E+09,9E+09,9E+09,9E+09]];
    CONST robtarget T5050:=[[-4.354220,20.921970,3.831125],[0.000000,0.000000,1.000000,0.000000],[0,0,-1,0],[9E+09,9E+09,9E+09,9E+09,9E+09,9E+09]];
    CONST robtarget T5060:=[[-2.854220,-22.610029,3.831125],[0.000000,0.000000,1.000000,0.000000],[0,0,-1,0],[9E+09,9E+09,9E+09,9E+09,9E+09,9E+09]];
    CONST robtarget T5070:=[[-2.854220,20.921970,3.831125],[0.000000,0.000000,1.000000,0.000000],[0,0,-1,0],[9E+09,9E+09,9E+09,9E+09,9E+09,9E+09]];
    CONST robtarget T5080:=[[-1.354220,-22.610029,3.831125],[0.000000,0.000000,1.000000,0.000000],[0,0,-1,0],[9E+09,9E+09,9E+09,9E+09,9E+09,9E+09]];
    CONST robtarget T5090:=[[-1.354220,20.921970,3.831125],[0.000000,0.000000,1.000000,0.000000],[0,0,-1,0],[9E+09,9E+09,9E+09,9E+09,9E+09,9E+09]];
    CONST robtarget T5100:=[[0.145780,-22.610029,3.831125],[0.000000,0.000000,1.000000,0.000000],[0,0,-1,0],[9E+09,9E+09,9E+09,9E+09,9E+09,9E+09]];
    CONST robtarget T5110:=[[0.145780,20.921970,3.831125],[0.000000,0.000000,1.000000,0.000000],[0,0,-1,0],[9E+09,9E+09,9E+09,9E+09,9E+09,9E+09]];
    CONST robtarget T5120:=[[1.645780,-22.610029,3.831125],[0.000000,0.000000,1.000000,0.000000],[0,0,-1,0],[9E+09,9E+09,9E+09,9E+09,9E+09,9E+09]];
    CONST robtarget T5130:=[[1.645780,20.921970,3.831125],[0.000000,0.000000,1.000000,0.000000],[0,0,-1,0],[9E+09,9E+09,9E+09,9E+09,9E+09,9E+09]];
    CONST robtarget T5140:=[[3.145780,-22.610029,3.831125],[0.000000,0.000000,1.000000,0.000000],[0,0,-1,0],[9E+09,9E+09,9E+09,9E+09,9E+09,9E+09]];
    CONST robtarget T5150:=[[3.145780,20.921970,3.831125],[0.000000,0.000000,1.000000,0.000000],[0,0,-1,0],[9E+09,9E+09,9E+09,9E+09,9E+09,9E+09]];
    CONST robtarget T5160:=[[4.645780,-22.610029,3.831125],[0.000000,0.000000,1.000000,0.000000],[0,0,-1,0],[9E+09,9E+09,9E+09,9E+09,9E+09,9E+09]];
    CONST robtarget T5170:=[[4.645780,20.921970,3.831125],[0.000000,0.000000,1.000000,0.000000],[0,0,-1,0],[9E+09,9E+09,9E+09,9E+09,9E+09,9E+09]];
    CONST robtarget T5180:=[[6.145780,-22.610029,3.831125],[0.000000,0.000000,1.000000,0.000000],[0,0,-1,0],[9E+09,9E+09,9E+09,9E+09,9E+09,9E+09]];
    CONST robtarget T5190:=[[6.145780,20.921970,3.831125],[0.000000,0.000000,1.000000,0.000000],[0,0,-1,0],[9E+09,9E+09,9E+09,9E+09,9E+09,9E+09]];
    CONST robtarget T5200:=[[7.645780,-22.610029,3.831125],[0.000000,0.000000,1.000000,0.000000],[0,0,-1,0],[9E+09,9E+09,9E+09,9E+09,9E+09,9E+09]];
    CONST robtarget T5210:=[[7.645780,20.921970,3.831125],[0.000000,0.000000,1.000000,0.000000],[0,0,-1,0],[9E+09,9E+09,9E+09,9E+09,9E+09,9E+09]];
    CONST robtarget T5220:=[[9.145780,-22.610029,3.831125],[0.000000,0.000000,1.000000,0.000000],[0,0,-1,0],[9E+09,9E+09,9E+09,9E+09,9E+09,9E+09]];
    CONST robtarget T5230:=[[9.145780,20.921970,3.831125],[0.000000,0.000000,1.000000,0.000000],[0,0,-1,0],[9E+09,9E+09,9E+09,9E+09,9E+09,9E+09]];
    CONST robtarget T5240:=[[10.645780,-22.610029,3.831125],[0.000000,0.000000,1.000000,0.000000],[0,0,-1,0],[9E+09,9E+09,9E+09,9E+09,9E+09,9E+09]];
    CONST robtarget T5250:=[[10.645780,20.921970,3.831125],[0.000000,0.000000,1.000000,0.000000],[0,0,-1,0],[9E+09,9E+09,9E+09,9E+09,9E+09,9E+09]];
    CONST robtarget T5260:=[[12.145780,-22.610029,3.831125],[0.000000,0.000000,1.000000,0.000000],[0,0,-1,0],[9E+09,9E+09,9E+09,9E+09,9E+09,9E+09]];
    CONST robtarget T5270:=[[12.145780,20.921970,3.831125],[0.000000,0.000000,1.000000,0.000000],[0,0,-1,0],[9E+09,9E+09,9E+09,9E+09,9E+09,9E+09]];
    CONST robtarget T5280:=[[13.645780,-22.610029,3.831125],[0.000000,0.000000,1.000000,0.000000],[0,0,-1,0],[9E+09,9E+09,9E+09,9E+09,9E+09,9E+09]];
    CONST robtarget T5290:=[[13.645780,20.921970,3.831125],[0.000000,0.000000,1.000000,0.000000],[0,0,-1,0],[9E+09,9E+09,9E+09,9E+09,9E+09,9E+09]];
    CONST robtarget T5300:=[[15.145780,-22.610029,3.831125],[0.000000,0.000000,1.000000,0.000000],[0,0,-1,0],[9E+09,9E+09,9E+09,9E+09,9E+09,9E+09]];
    CONST robtarget T5310:=[[15.145780,20.921970,3.831125],[0.000000,0.000000,1.000000,0.000000],[0,0,-1,0],[9E+09,9E+09,9E+09,9E+09,9E+09,9E+09]];
    CONST robtarget T5320:=[[16.645780,-22.610029,3.831125],[0.000000,0.000000,1.000000,0.000000],[0,0,-1,0],[9E+09,9E+09,9E+09,9E+09,9E+09,9E+09]];
    CONST robtarget T5330:=[[16.645780,20.921970,3.831125],[0.000000,0.000000,1.000000,0.000000],[0,0,-1,0],[9E+09,9E+09,9E+09,9E+09,9E+09,9E+09]];
    CONST robtarget T5340:=[[18.145780,-22.610029,3.831125],[0.000000,0.000000,1.000000,0.000000],[0,0,-1,0],[9E+09,9E+09,9E+09,9E+09,9E+09,9E+09]];
    CONST robtarget T5350:=[[18.145780,20.921970,3.831125],[0.000000,0.000000,1.000000,0.000000],[0,0,-1,0],[9E+09,9E+09,9E+09,9E+09,9E+09,9E+09]];
    CONST robtarget T5360:=[[19.645780,-22.610029,3.831125],[0.000000,0.000000,1.000000,0.000000],[0,0,-1,0],[9E+09,9E+09,9E+09,9E+09,9E+09,9E+09]];
    CONST robtarget T5370:=[[19.645780,20.921970,3.831125],[0.000000,0.000000,1.000000,0.000000],[0,0,-1,0],[9E+09,9E+09,9E+09,9E+09,9E+09,9E+09]];
    CONST robtarget T5380:=[[21.145780,-22.610029,3.831125],[0.000000,0.000000,1.000000,0.000000],[0,0,-1,0],[9E+09,9E+09,9E+09,9E+09,9E+09,9E+09]];
    CONST robtarget T5390:=[[21.145780,20.921970,3.831125],[0.000000,0.000000,1.000000,0.000000],[0,0,-1,0],[9E+09,9E+09,9E+09,9E+09,9E+09,9E+09]];
    CONST robtarget T5400:=[[22.645780,-22.610029,3.831125],[0.000000,0.000000,1.000000,0.000000],[0,0,-1,0],[9E+09,9E+09,9E+09,9E+09,9E+09,9E+09]];
    CONST robtarget T5410:=[[22.645780,20.921970,3.831125],[0.000000,0.000000,1.000000,0.000000],[0,0,-1,0],[9E+09,9E+09,9E+09,9E+09,9E+09,9E+09]];
    CONST robtarget T5420:=[[24.145780,-22.610029,3.831125],[0.000000,0.000000,1.000000,0.000000],[0,0,-1,0],[9E+09,9E+09,9E+09,9E+09,9E+09,9E+09]];
    CONST robtarget T5430:=[[24.145780,20.921970,3.831125],[0.000000,0.000000,1.000000,0.000000],[0,0,-1,0],[9E+09,9E+09,9E+09,9E+09,9E+09,9E+09]];
    CONST robtarget T5440:=[[-25.354220,-22.610029,4.331125],[0.000000,0.000000,1.000000,0.000000],[0,0,-1,0],[9E+09,9E+09,9E+09,9E+09,9E+09,9E+09]];
    CONST robtarget T5450:=[[-25.354220,20.921970,4.331125],[0.000000,0.000000,1.000000,0.000000],[0,0,-1,0],[9E+09,9E+09,9E+09,9E+09,9E+09,9E+09]];
    CONST robtarget T5460:=[[-23.854220,-22.610029,4.331125],[0.000000,0.000000,1.000000,0.000000],[0,0,-1,0],[9E+09,9E+09,9E+09,9E+09,9E+09,9E+09]];
    CONST robtarget T5470:=[[-23.854220,20.921970,4.331125],[0.000000,0.000000,1.000000,0.000000],[0,0,-1,0],[9E+09,9E+09,9E+09,9E+09,9E+09,9E+09]];
    CONST robtarget T5480:=[[-22.354220,-22.610029,4.331125],[0.000000,0.000000,1.000000,0.000000],[0,0,-1,0],[9E+09,9E+09,9E+09,9E+09,9E+09,9E+09]];
    CONST robtarget T5490:=[[-22.354220,20.921970,4.331125],[0.000000,0.000000,1.000000,0.000000],[0,0,-1,0],[9E+09,9E+09,9E+09,9E+09,9E+09,9E+09]];
    CONST robtarget T5500:=[[-20.854220,-22.610029,4.331125],[0.000000,0.000000,1.000000,0.000000],[0,0,-1,0],[9E+09,9E+09,9E+09,9E+09,9E+09,9E+09]];
    CONST robtarget T5510:=[[-20.854220,20.921970,4.331125],[0.000000,0.000000,1.000000,0.000000],[0,0,-1,0],[9E+09,9E+09,9E+09,9E+09,9E+09,9E+09]];
    CONST robtarget T5520:=[[-19.354220,-22.610029,4.331125],[0.000000,0.000000,1.000000,0.000000],[0,0,-1,0],[9E+09,9E+09,9E+09,9E+09,9E+09,9E+09]];
    CONST robtarget T5530:=[[-19.354220,20.921970,4.331125],[0.000000,0.000000,1.000000,0.000000],[0,0,-1,0],[9E+09,9E+09,9E+09,9E+09,9E+09,9E+09]];
    CONST robtarget T5540:=[[-17.854220,-22.610029,4.331125],[0.000000,0.000000,1.000000,0.000000],[0,0,-1,0],[9E+09,9E+09,9E+09,9E+09,9E+09,9E+09]];
    CONST robtarget T5550:=[[-17.854220,20.921970,4.331125],[0.000000,0.000000,1.000000,0.000000],[0,0,-1,0],[9E+09,9E+09,9E+09,9E+09,9E+09,9E+09]];
    CONST robtarget T5560:=[[-16.354220,-22.610029,4.331125],[0.000000,0.000000,1.000000,0.000000],[0,0,-1,0],[9E+09,9E+09,9E+09,9E+09,9E+09,9E+09]];
    CONST robtarget T5570:=[[-16.354220,20.921970,4.331125],[0.000000,0.000000,1.000000,0.000000],[0,0,-1,0],[9E+09,9E+09,9E+09,9E+09,9E+09,9E+09]];
    CONST robtarget T5580:=[[-14.854220,-22.610029,4.331125],[0.000000,0.000000,1.000000,0.000000],[0,0,-1,0],[9E+09,9E+09,9E+09,9E+09,9E+09,9E+09]];
    CONST robtarget T5590:=[[-14.854220,20.921970,4.331125],[0.000000,0.000000,1.000000,0.000000],[0,0,-1,0],[9E+09,9E+09,9E+09,9E+09,9E+09,9E+09]];
    CONST robtarget T5600:=[[-13.354220,-22.610029,4.331125],[0.000000,0.000000,1.000000,0.000000],[0,0,-1,0],[9E+09,9E+09,9E+09,9E+09,9E+09,9E+09]];
    CONST robtarget T5610:=[[-13.354220,20.921970,4.331125],[0.000000,0.000000,1.000000,0.000000],[0,0,-1,0],[9E+09,9E+09,9E+09,9E+09,9E+09,9E+09]];
    CONST robtarget T5620:=[[-11.854220,-22.610029,4.331125],[0.000000,0.000000,1.000000,0.000000],[0,0,-1,0],[9E+09,9E+09,9E+09,9E+09,9E+09,9E+09]];
    CONST robtarget T5630:=[[-11.854220,20.921970,4.331125],[0.000000,0.000000,1.000000,0.000000],[0,0,-1,0],[9E+09,9E+09,9E+09,9E+09,9E+09,9E+09]];
    CONST robtarget T5640:=[[-10.354220,-22.610029,4.331125],[0.000000,0.000000,1.000000,0.000000],[0,0,-1,0],[9E+09,9E+09,9E+09,9E+09,9E+09,9E+09]];
    CONST robtarget T5650:=[[-10.354220,20.921970,4.331125],[0.000000,0.000000,1.000000,0.000000],[0,0,-1,0],[9E+09,9E+09,9E+09,9E+09,9E+09,9E+09]];
    CONST robtarget T5660:=[[-8.854220,-22.610029,4.331125],[0.000000,0.000000,1.000000,0.000000],[0,0,-1,0],[9E+09,9E+09,9E+09,9E+09,9E+09,9E+09]];
    CONST robtarget T5670:=[[-8.854220,20.921970,4.331125],[0.000000,0.000000,1.000000,0.000000],[0,0,-1,0],[9E+09,9E+09,9E+09,9E+09,9E+09,9E+09]];
    CONST robtarget T5680:=[[-7.354220,-22.610029,4.331125],[0.000000,0.000000,1.000000,0.000000],[0,0,-1,0],[9E+09,9E+09,9E+09,9E+09,9E+09,9E+09]];
    CONST robtarget T5690:=[[-7.354220,20.921970,4.331125],[0.000000,0.000000,1.000000,0.000000],[0,0,-1,0],[9E+09,9E+09,9E+09,9E+09,9E+09,9E+09]];
    CONST robtarget T5700:=[[-5.854220,-22.610029,4.331125],[0.000000,0.000000,1.000000,0.000000],[0,0,-1,0],[9E+09,9E+09,9E+09,9E+09,9E+09,9E+09]];
    CONST robtarget T5710:=[[-5.854220,20.921970,4.331125],[0.000000,0.000000,1.000000,0.000000],[0,0,-1,0],[9E+09,9E+09,9E+09,9E+09,9E+09,9E+09]];
    CONST robtarget T5720:=[[-4.354220,-22.610029,4.331125],[0.000000,0.000000,1.000000,0.000000],[0,0,-1,0],[9E+09,9E+09,9E+09,9E+09,9E+09,9E+09]];
    CONST robtarget T5730:=[[-4.354220,20.921970,4.331125],[0.000000,0.000000,1.000000,0.000000],[0,0,-1,0],[9E+09,9E+09,9E+09,9E+09,9E+09,9E+09]];
    CONST robtarget T5740:=[[-2.854220,-22.610029,4.331125],[0.000000,0.000000,1.000000,0.000000],[0,0,-1,0],[9E+09,9E+09,9E+09,9E+09,9E+09,9E+09]];
    CONST robtarget T5750:=[[-2.854220,20.921970,4.331125],[0.000000,0.000000,1.000000,0.000000],[0,0,-1,0],[9E+09,9E+09,9E+09,9E+09,9E+09,9E+09]];
    CONST robtarget T5760:=[[-1.354220,-22.610029,4.331125],[0.000000,0.000000,1.000000,0.000000],[0,0,-1,0],[9E+09,9E+09,9E+09,9E+09,9E+09,9E+09]];
    CONST robtarget T5770:=[[-1.354220,20.921970,4.331125],[0.000000,0.000000,1.000000,0.000000],[0,0,-1,0],[9E+09,9E+09,9E+09,9E+09,9E+09,9E+09]];
    CONST robtarget T5780:=[[0.145780,-22.610029,4.331125],[0.000000,0.000000,1.000000,0.000000],[0,0,-1,0],[9E+09,9E+09,9E+09,9E+09,9E+09,9E+09]];
    CONST robtarget T5790:=[[0.145780,20.921970,4.331125],[0.000000,0.000000,1.000000,0.000000],[0,0,-1,0],[9E+09,9E+09,9E+09,9E+09,9E+09,9E+09]];
    CONST robtarget T5800:=[[1.645780,-22.610029,4.331125],[0.000000,0.000000,1.000000,0.000000],[0,0,-1,0],[9E+09,9E+09,9E+09,9E+09,9E+09,9E+09]];
    CONST robtarget T5810:=[[1.645780,20.921970,4.331125],[0.000000,0.000000,1.000000,0.000000],[0,0,-1,0],[9E+09,9E+09,9E+09,9E+09,9E+09,9E+09]];
    CONST robtarget T5820:=[[3.145780,-22.610029,4.331125],[0.000000,0.000000,1.000000,0.000000],[0,0,-1,0],[9E+09,9E+09,9E+09,9E+09,9E+09,9E+09]];
    CONST robtarget T5830:=[[3.145780,20.921970,4.331125],[0.000000,0.000000,1.000000,0.000000],[0,0,-1,0],[9E+09,9E+09,9E+09,9E+09,9E+09,9E+09]];
    CONST robtarget T5840:=[[4.645780,-22.610029,4.331125],[0.000000,0.000000,1.000000,0.000000],[0,0,-1,0],[9E+09,9E+09,9E+09,9E+09,9E+09,9E+09]];
    CONST robtarget T5850:=[[4.645780,20.921970,4.331125],[0.000000,0.000000,1.000000,0.000000],[0,0,-1,0],[9E+09,9E+09,9E+09,9E+09,9E+09,9E+09]];
    CONST robtarget T5860:=[[6.145780,-22.610029,4.331125],[0.000000,0.000000,1.000000,0.000000],[0,0,-1,0],[9E+09,9E+09,9E+09,9E+09,9E+09,9E+09]];
    CONST robtarget T5870:=[[6.145780,20.921970,4.331125],[0.000000,0.000000,1.000000,0.000000],[0,0,-1,0],[9E+09,9E+09,9E+09,9E+09,9E+09,9E+09]];
    CONST robtarget T5880:=[[7.645780,-22.610029,4.331125],[0.000000,0.000000,1.000000,0.000000],[0,0,-1,0],[9E+09,9E+09,9E+09,9E+09,9E+09,9E+09]];
    CONST robtarget T5890:=[[7.645780,20.921970,4.331125],[0.000000,0.000000,1.000000,0.000000],[0,0,-1,0],[9E+09,9E+09,9E+09,9E+09,9E+09,9E+09]];
    CONST robtarget T5900:=[[9.145780,-22.610029,4.331125],[0.000000,0.000000,1.000000,0.000000],[0,0,-1,0],[9E+09,9E+09,9E+09,9E+09,9E+09,9E+09]];
    CONST robtarget T5910:=[[9.145780,20.921970,4.331125],[0.000000,0.000000,1.000000,0.000000],[0,0,-1,0],[9E+09,9E+09,9E+09,9E+09,9E+09,9E+09]];
    CONST robtarget T5920:=[[10.645780,-22.610029,4.331125],[0.000000,0.000000,1.000000,0.000000],[0,0,-1,0],[9E+09,9E+09,9E+09,9E+09,9E+09,9E+09]];
    CONST robtarget T5930:=[[10.645780,20.921970,4.331125],[0.000000,0.000000,1.000000,0.000000],[0,0,-1,0],[9E+09,9E+09,9E+09,9E+09,9E+09,9E+09]];
    CONST robtarget T5940:=[[12.145780,-22.610029,4.331125],[0.000000,0.000000,1.000000,0.000000],[0,0,-1,0],[9E+09,9E+09,9E+09,9E+09,9E+09,9E+09]];
    CONST robtarget T5950:=[[12.145780,20.921970,4.331125],[0.000000,0.000000,1.000000,0.000000],[0,0,-1,0],[9E+09,9E+09,9E+09,9E+09,9E+09,9E+09]];
    CONST robtarget T5960:=[[13.645780,-22.610029,4.331125],[0.000000,0.000000,1.000000,0.000000],[0,0,-1,0],[9E+09,9E+09,9E+09,9E+09,9E+09,9E+09]];
    CONST robtarget T5970:=[[13.645780,20.921970,4.331125],[0.000000,0.000000,1.000000,0.000000],[0,0,-1,0],[9E+09,9E+09,9E+09,9E+09,9E+09,9E+09]];
    CONST robtarget T5980:=[[15.145780,-22.610029,4.331125],[0.000000,0.000000,1.000000,0.000000],[0,0,-1,0],[9E+09,9E+09,9E+09,9E+09,9E+09,9E+09]];
    CONST robtarget T5990:=[[15.145780,20.921970,4.331125],[0.000000,0.000000,1.000000,0.000000],[0,0,-1,0],[9E+09,9E+09,9E+09,9E+09,9E+09,9E+09]];
    CONST robtarget T6000:=[[16.645780,-22.610029,4.331125],[0.000000,0.000000,1.000000,0.000000],[0,0,-1,0],[9E+09,9E+09,9E+09,9E+09,9E+09,9E+09]];
    CONST robtarget T6010:=[[16.645780,20.921970,4.331125],[0.000000,0.000000,1.000000,0.000000],[0,0,-1,0],[9E+09,9E+09,9E+09,9E+09,9E+09,9E+09]];
    CONST robtarget T6020:=[[18.145780,-22.610029,4.331125],[0.000000,0.000000,1.000000,0.000000],[0,0,-1,0],[9E+09,9E+09,9E+09,9E+09,9E+09,9E+09]];
    CONST robtarget T6030:=[[18.145780,20.921970,4.331125],[0.000000,0.000000,1.000000,0.000000],[0,0,-1,0],[9E+09,9E+09,9E+09,9E+09,9E+09,9E+09]];
    CONST robtarget T6040:=[[19.645780,-22.610029,4.331125],[0.000000,0.000000,1.000000,0.000000],[0,0,-1,0],[9E+09,9E+09,9E+09,9E+09,9E+09,9E+09]];
    CONST robtarget T6050:=[[19.645780,20.921970,4.331125],[0.000000,0.000000,1.000000,0.000000],[0,0,-1,0],[9E+09,9E+09,9E+09,9E+09,9E+09,9E+09]];
    CONST robtarget T6060:=[[21.145780,-22.610029,4.331125],[0.000000,0.000000,1.000000,0.000000],[0,0,-1,0],[9E+09,9E+09,9E+09,9E+09,9E+09,9E+09]];
    CONST robtarget T6070:=[[21.145780,20.921970,4.331125],[0.000000,0.000000,1.000000,0.000000],[0,0,-1,0],[9E+09,9E+09,9E+09,9E+09,9E+09,9E+09]];
    CONST robtarget T6080:=[[22.645780,-22.610029,4.331125],[0.000000,0.000000,1.000000,0.000000],[0,0,-1,0],[9E+09,9E+09,9E+09,9E+09,9E+09,9E+09]];
    CONST robtarget T6090:=[[22.645780,20.921970,4.331125],[0.000000,0.000000,1.000000,0.000000],[0,0,-1,0],[9E+09,9E+09,9E+09,9E+09,9E+09,9E+09]];
    CONST robtarget T6100:=[[24.145780,-22.610029,4.331125],[0.000000,0.000000,1.000000,0.000000],[0,0,-1,0],[9E+09,9E+09,9E+09,9E+09,9E+09,9E+09]];
    CONST robtarget T6110:=[[24.145780,20.921970,4.331125],[0.000000,0.000000,1.000000,0.000000],[0,0,-1,0],[9E+09,9E+09,9E+09,9E+09,9E+09,9E+09]];
    CONST robtarget T6120:=[[-25.354220,-22.610029,4.831125],[0.000000,0.000000,1.000000,0.000000],[0,0,-1,0],[9E+09,9E+09,9E+09,9E+09,9E+09,9E+09]];
    CONST robtarget T6130:=[[-25.354220,20.921970,4.831125],[0.000000,0.000000,1.000000,0.000000],[0,0,-1,0],[9E+09,9E+09,9E+09,9E+09,9E+09,9E+09]];
    CONST robtarget T6140:=[[-23.854220,-22.610029,4.831125],[0.000000,0.000000,1.000000,0.000000],[0,0,-1,0],[9E+09,9E+09,9E+09,9E+09,9E+09,9E+09]];
    CONST robtarget T6150:=[[-23.854220,20.921970,4.831125],[0.000000,0.000000,1.000000,0.000000],[0,0,-1,0],[9E+09,9E+09,9E+09,9E+09,9E+09,9E+09]];
    CONST robtarget T6160:=[[-22.354220,-22.610029,4.831125],[0.000000,0.000000,1.000000,0.000000],[0,0,-1,0],[9E+09,9E+09,9E+09,9E+09,9E+09,9E+09]];
    CONST robtarget T6170:=[[-22.354220,20.921970,4.831125],[0.000000,0.000000,1.000000,0.000000],[0,0,-1,0],[9E+09,9E+09,9E+09,9E+09,9E+09,9E+09]];
    CONST robtarget T6180:=[[-20.854220,-22.610029,4.831125],[0.000000,0.000000,1.000000,0.000000],[0,0,-1,0],[9E+09,9E+09,9E+09,9E+09,9E+09,9E+09]];
    CONST robtarget T6190:=[[-20.854220,20.921970,4.831125],[0.000000,0.000000,1.000000,0.000000],[0,0,-1,0],[9E+09,9E+09,9E+09,9E+09,9E+09,9E+09]];
    CONST robtarget T6200:=[[-19.354220,-22.610029,4.831125],[0.000000,0.000000,1.000000,0.000000],[0,0,-1,0],[9E+09,9E+09,9E+09,9E+09,9E+09,9E+09]];
    CONST robtarget T6210:=[[-19.354220,20.921970,4.831125],[0.000000,0.000000,1.000000,0.000000],[0,0,-1,0],[9E+09,9E+09,9E+09,9E+09,9E+09,9E+09]];
    CONST robtarget T6220:=[[-17.854220,-22.610029,4.831125],[0.000000,0.000000,1.000000,0.000000],[0,0,-1,0],[9E+09,9E+09,9E+09,9E+09,9E+09,9E+09]];
    CONST robtarget T6230:=[[-17.854220,20.921970,4.831125],[0.000000,0.000000,1.000000,0.000000],[0,0,-1,0],[9E+09,9E+09,9E+09,9E+09,9E+09,9E+09]];
    CONST robtarget T6240:=[[-16.354220,-22.610029,4.831125],[0.000000,0.000000,1.000000,0.000000],[0,0,-1,0],[9E+09,9E+09,9E+09,9E+09,9E+09,9E+09]];
    CONST robtarget T6250:=[[-16.354220,20.921970,4.831125],[0.000000,0.000000,1.000000,0.000000],[0,0,-1,0],[9E+09,9E+09,9E+09,9E+09,9E+09,9E+09]];
    CONST robtarget T6260:=[[-14.854220,-22.610029,4.831125],[0.000000,0.000000,1.000000,0.000000],[0,0,-1,0],[9E+09,9E+09,9E+09,9E+09,9E+09,9E+09]];
    CONST robtarget T6270:=[[-14.854220,20.921970,4.831125],[0.000000,0.000000,1.000000,0.000000],[0,0,-1,0],[9E+09,9E+09,9E+09,9E+09,9E+09,9E+09]];
    CONST robtarget T6280:=[[-13.354220,-22.610029,4.831125],[0.000000,0.000000,1.000000,0.000000],[0,0,-1,0],[9E+09,9E+09,9E+09,9E+09,9E+09,9E+09]];
    CONST robtarget T6290:=[[-13.354220,20.921970,4.831125],[0.000000,0.000000,1.000000,0.000000],[0,0,-1,0],[9E+09,9E+09,9E+09,9E+09,9E+09,9E+09]];
    CONST robtarget T6300:=[[-11.854220,-22.610029,4.831125],[0.000000,0.000000,1.000000,0.000000],[0,0,-1,0],[9E+09,9E+09,9E+09,9E+09,9E+09,9E+09]];
    CONST robtarget T6310:=[[-11.854220,20.921970,4.831125],[0.000000,0.000000,1.000000,0.000000],[0,0,-1,0],[9E+09,9E+09,9E+09,9E+09,9E+09,9E+09]];
    CONST robtarget T6320:=[[-10.354220,-22.610029,4.831125],[0.000000,0.000000,1.000000,0.000000],[0,0,-1,0],[9E+09,9E+09,9E+09,9E+09,9E+09,9E+09]];
    CONST robtarget T6330:=[[-10.354220,20.921970,4.831125],[0.000000,0.000000,1.000000,0.000000],[0,0,-1,0],[9E+09,9E+09,9E+09,9E+09,9E+09,9E+09]];
    CONST robtarget T6340:=[[-8.854220,-22.610029,4.831125],[0.000000,0.000000,1.000000,0.000000],[0,0,-1,0],[9E+09,9E+09,9E+09,9E+09,9E+09,9E+09]];
    CONST robtarget T6350:=[[-8.854220,-10.100318,4.831125],[0.000000,0.000000,1.000000,0.000000],[0,0,-1,0],[9E+09,9E+09,9E+09,9E+09,9E+09,9E+09]];
    CONST robtarget T6360:=[[-8.854220,-7.950202,4.831125],[0.000000,0.000000,1.000000,0.000000],[0,0,-1,0],[9E+09,9E+09,9E+09,9E+09,9E+09,9E+09]];
    CONST robtarget T6370:=[[-8.854220,20.921970,4.831125],[0.000000,0.000000,1.000000,0.000000],[0,0,-1,0],[9E+09,9E+09,9E+09,9E+09,9E+09,9E+09]];
    CONST robtarget T6380:=[[-7.354220,-22.610029,4.831125],[0.000000,0.000000,1.000000,0.000000],[0,0,-1,0],[9E+09,9E+09,9E+09,9E+09,9E+09,9E+09]];
    CONST robtarget T6390:=[[-7.354220,20.921970,4.831125],[0.000000,0.000000,1.000000,0.000000],[0,0,-1,0],[9E+09,9E+09,9E+09,9E+09,9E+09,9E+09]];
    CONST robtarget T6400:=[[-5.854220,-22.610029,4.831125],[0.000000,0.000000,1.000000,0.000000],[0,0,-1,0],[9E+09,9E+09,9E+09,9E+09,9E+09,9E+09]];
    CONST robtarget T6410:=[[-5.854220,20.921970,4.831125],[0.000000,0.000000,1.000000,0.000000],[0,0,-1,0],[9E+09,9E+09,9E+09,9E+09,9E+09,9E+09]];
    CONST robtarget T6420:=[[-4.354220,-22.610029,4.831125],[0.000000,0.000000,1.000000,0.000000],[0,0,-1,0],[9E+09,9E+09,9E+09,9E+09,9E+09,9E+09]];
    CONST robtarget T6430:=[[-4.354220,20.921970,4.831125],[0.000000,0.000000,1.000000,0.000000],[0,0,-1,0],[9E+09,9E+09,9E+09,9E+09,9E+09,9E+09]];
    CONST robtarget T6440:=[[-2.854220,-22.610029,4.831125],[0.000000,0.000000,1.000000,0.000000],[0,0,-1,0],[9E+09,9E+09,9E+09,9E+09,9E+09,9E+09]];
    CONST robtarget T6450:=[[-2.854220,20.921970,4.831125],[0.000000,0.000000,1.000000,0.000000],[0,0,-1,0],[9E+09,9E+09,9E+09,9E+09,9E+09,9E+09]];
    CONST robtarget T6460:=[[-1.354220,-22.610029,4.831125],[0.000000,0.000000,1.000000,0.000000],[0,0,-1,0],[9E+09,9E+09,9E+09,9E+09,9E+09,9E+09]];
    CONST robtarget T6470:=[[-1.354220,12.951533,4.831125],[0.000000,0.000000,1.000000,0.000000],[0,0,-1,0],[9E+09,9E+09,9E+09,9E+09,9E+09,9E+09]];
    CONST robtarget T6480:=[[-1.354220,14.970440,4.831125],[0.000000,0.000000,1.000000,0.000000],[0,0,-1,0],[9E+09,9E+09,9E+09,9E+09,9E+09,9E+09]];
    CONST robtarget T6490:=[[-1.354220,20.921970,4.831125],[0.000000,0.000000,1.000000,0.000000],[0,0,-1,0],[9E+09,9E+09,9E+09,9E+09,9E+09,9E+09]];
    CONST robtarget T6500:=[[0.145780,-22.610029,4.831125],[0.000000,0.000000,1.000000,0.000000],[0,0,-1,0],[9E+09,9E+09,9E+09,9E+09,9E+09,9E+09]];
    CONST robtarget T6510:=[[0.145780,20.921970,4.831125],[0.000000,0.000000,1.000000,0.000000],[0,0,-1,0],[9E+09,9E+09,9E+09,9E+09,9E+09,9E+09]];
    CONST robtarget T6520:=[[1.645780,-22.610029,4.831125],[0.000000,0.000000,1.000000,0.000000],[0,0,-1,0],[9E+09,9E+09,9E+09,9E+09,9E+09,9E+09]];
    CONST robtarget T6530:=[[1.645780,20.921970,4.831125],[0.000000,0.000000,1.000000,0.000000],[0,0,-1,0],[9E+09,9E+09,9E+09,9E+09,9E+09,9E+09]];
    CONST robtarget T6540:=[[3.145780,-22.610029,4.831125],[0.000000,0.000000,1.000000,0.000000],[0,0,-1,0],[9E+09,9E+09,9E+09,9E+09,9E+09,9E+09]];
    CONST robtarget T6550:=[[3.145780,20.921970,4.831125],[0.000000,0.000000,1.000000,0.000000],[0,0,-1,0],[9E+09,9E+09,9E+09,9E+09,9E+09,9E+09]];
    CONST robtarget T6560:=[[4.645780,-22.610029,4.831125],[0.000000,0.000000,1.000000,0.000000],[0,0,-1,0],[9E+09,9E+09,9E+09,9E+09,9E+09,9E+09]];
    CONST robtarget T6570:=[[4.645780,20.921970,4.831125],[0.000000,0.000000,1.000000,0.000000],[0,0,-1,0],[9E+09,9E+09,9E+09,9E+09,9E+09,9E+09]];
    CONST robtarget T6580:=[[6.145780,-22.610029,4.831125],[0.000000,0.000000,1.000000,0.000000],[0,0,-1,0],[9E+09,9E+09,9E+09,9E+09,9E+09,9E+09]];
    CONST robtarget T6590:=[[6.145780,20.921970,4.831125],[0.000000,0.000000,1.000000,0.000000],[0,0,-1,0],[9E+09,9E+09,9E+09,9E+09,9E+09,9E+09]];
    CONST robtarget T6600:=[[7.645780,-22.610029,4.831125],[0.000000,0.000000,1.000000,0.000000],[0,0,-1,0],[9E+09,9E+09,9E+09,9E+09,9E+09,9E+09]];
    CONST robtarget T6610:=[[7.645780,20.921970,4.831125],[0.000000,0.000000,1.000000,0.000000],[0,0,-1,0],[9E+09,9E+09,9E+09,9E+09,9E+09,9E+09]];
    CONST robtarget T6620:=[[9.145780,-22.610029,4.831125],[0.000000,0.000000,1.000000,0.000000],[0,0,-1,0],[9E+09,9E+09,9E+09,9E+09,9E+09,9E+09]];
    CONST robtarget T6630:=[[9.145780,20.921970,4.831125],[0.000000,0.000000,1.000000,0.000000],[0,0,-1,0],[9E+09,9E+09,9E+09,9E+09,9E+09,9E+09]];
    CONST robtarget T6640:=[[10.645780,-22.610029,4.831125],[0.000000,0.000000,1.000000,0.000000],[0,0,-1,0],[9E+09,9E+09,9E+09,9E+09,9E+09,9E+09]];
    CONST robtarget T6650:=[[10.645780,20.921970,4.831125],[0.000000,0.000000,1.000000,0.000000],[0,0,-1,0],[9E+09,9E+09,9E+09,9E+09,9E+09,9E+09]];
    CONST robtarget T6660:=[[12.145780,-22.610029,4.831125],[0.000000,0.000000,1.000000,0.000000],[0,0,-1,0],[9E+09,9E+09,9E+09,9E+09,9E+09,9E+09]];
    CONST robtarget T6670:=[[12.145780,20.921970,4.831125],[0.000000,0.000000,1.000000,0.000000],[0,0,-1,0],[9E+09,9E+09,9E+09,9E+09,9E+09,9E+09]];
    CONST robtarget T6680:=[[13.645780,-22.610029,4.831125],[0.000000,0.000000,1.000000,0.000000],[0,0,-1,0],[9E+09,9E+09,9E+09,9E+09,9E+09,9E+09]];
    CONST robtarget T6690:=[[13.645780,-4.617012,4.831125],[0.000000,0.000000,1.000000,0.000000],[0,0,-1,0],[9E+09,9E+09,9E+09,9E+09,9E+09,9E+09]];
    CONST robtarget T6700:=[[13.645780,-3.808876,4.831125],[0.000000,0.000000,1.000000,0.000000],[0,0,-1,0],[9E+09,9E+09,9E+09,9E+09,9E+09,9E+09]];
    CONST robtarget T6710:=[[13.645780,20.921970,4.831125],[0.000000,0.000000,1.000000,0.000000],[0,0,-1,0],[9E+09,9E+09,9E+09,9E+09,9E+09,9E+09]];
